; G-Code generated by Simplify3D(R) Version 3.0.1
; Jul 24, 2015 at 2:38:38 PM
; Settings Summary
;   processName,Process1
;   applyToModels,Tbody
;   profileName,MakerBot Replicator 2X (modified)
;   profileVersion,2015-05-01 08:00:00
;   baseProfile,
;   printMaterial,PLA
;   printQuality,Medium
;   printExtruders,Left Extruder Only
;   extruderName,Right Extruder,Left Extruder
;   extruderToolheadNumber,0,1
;   extruderDiameter,0.4,0.35
;   extruderAutoWidth,0,0
;   extruderWidth,0.4,0.42
;   extrusionMultiplier,0.9,1
;   extruderUseRetract,1,1
;   extruderRetractionDistance,1,1
;   extruderExtraRestartDistance,0,0
;   extruderRetractionZLift,0,0
;   extruderRetractionSpeed,1200,1200
;   extruderUseCoasting,0,0
;   extruderCoastingDistance,0.2,0.2
;   extruderUseWipe,0,1
;   extruderWipeDistance,5,3
;   primaryExtruder,1
;   layerHeight,0.2
;   topSolidLayers,3
;   bottomSolidLayers,3
;   perimeterOutlines,2
;   printPerimetersInsideOut,1
;   startPointOption,2
;   startPointOriginX,0
;   startPointOriginY,0
;   startPointOriginZ,300
;   sequentialIslands,0
;   spiralVaseMode,0
;   firstLayerHeightPercentage,90
;   firstLayerWidthPercentage,130
;   firstLayerUnderspeed,0.5
;   useRaft,1
;   raftExtruder,1
;   raftLayers,3
;   raftOffset,3
;   raftSeparationDistance,0.14
;   raftInfill,70
;   disableRaftBaseLayers,0
;   useSkirt,0
;   skirtExtruder,1
;   skirtLayers,1
;   skirtOutlines,2
;   skirtOffset,4
;   usePrimePillar,0
;   primePillarExtruder,999
;   primePillarWidth,12
;   primePillarLocation,7
;   primePillarSpeedMultiplier,1
;   useOozeShield,0
;   oozeShieldExtruder,999
;   oozeShieldOffset,2
;   oozeShieldOutlines,1
;   oozeShieldSidewallShape,1
;   oozeShieldSidewallAngle,30
;   oozeShieldSpeedMultiplier,1
;   infillExtruder,1
;   internalInfillPattern,Rectilinear
;   externalInfillPattern,Rectilinear
;   infillPercentage,5
;   outlineOverlapPercentage,20
;   infillExtrusionWidthPercentage,100
;   minInfillLength,5
;   infillLayerInterval,1
;   infillAngles,45,-45
;   overlapInfillAngles,0
;   generateSupport,0
;   supportExtruder,1
;   supportInfillPercentage,30
;   supportExtraInflation,0
;   denseSupportLayers,0
;   denseSupportInfillPercentage,70
;   supportLayerInterval,1
;   supportHorizontalPartOffset,0.3
;   supportUpperSeparationLayers,1
;   supportLowerSeparationLayers,1
;   supportType,0
;   supportGridSpacing,4
;   maxOverhangAngle,45
;   supportAngles,0
;   temperatureName,Right Extruder,Left Extruder,Heated Build Platform
;   temperatureNumber,0,1,0
;   temperatureSetpointCount,1,1,1
;   temperatureSetpointLayers,1,1,1
;   temperatureSetpointTemperatures,0,195,40
;   temperatureStabilizeAtStartup,0,0,0
;   temperatureHeatedBed,0,0,1
;   temperatureRelayBetweenLayers,0,0,0
;   temperatureRelayBetweenLoops,0,0,0
;   fanLayers,1,2
;   fanSpeeds,0,100
;   blipFanToFullPower,0
;   adjustSpeedForCooling,1
;   minSpeedLayerTime,15
;   minCoolingSpeedSlowdown,20
;   increaseFanForCooling,0
;   minFanLayerTime,45
;   maxCoolingFanSpeed,100
;   increaseFanForBridging,0
;   bridgingFanSpeed,100
;   use5D,1
;   relativeEdistances,1
;   allowEaxisZeroing,0
;   independentExtruderAxes,1
;   includeM10123,0
;   stickySupport,1
;   applyToolheadOffsets,0
;   gcodeXoffset,0
;   gcodeYoffset,0
;   gcodeZoffset,0
;   overrideMachineDefinition,1
;   machineTypeOverride,0
;   strokeXoverride,250
;   strokeYoverride,150
;   strokeZoverride,150
;   originOffsetXoverride,125
;   originOffsetYoverride,75
;   originOffsetZoverride,0
;   homeXdirOverride,1
;   homeYdirOverride,1
;   homeZdirOverride,-1
;   flipXoverride,1
;   flipYoverride,-1
;   flipZoverride,1
;   toolheadOffsets,0,0|33,0|0,0|0,0|0,0|0,0
;   overrideFirmwareConfiguration,1
;   firmwareTypeOverride,MakerBot/Sailfish Firmware
;   GPXconfigOverride,r2x
;   baudRateOverride,115200
;   overridePrinterModels,1
;   printerModelsOverride,MakerBot_Replicator2X.stl
;   startingGcode,; **** Replicator 2X start.gcode ****,M73 P0 ; Enable build progress,G162 X Y F3000 ; Home XY maximum,G161 Z F1200 ; Home Z minimum,G92 Z-5 ; Set Z to -5,G1 Z0 ; Move Z to 0,G161 Z F100 ; Home Z slowly,M132 X Y Z A B ; Recall home offsets,M135 T0 ; Load right extruder offsets,G1 X-130 Y-75 Z30 F9000 ; Move to wait position off table,G130 X20 Y20 Z20 A20 B20 ; Lower stepper Vrefs while heating,M126 S[fan_speed_pwm] ; Set fan speed,M140 S[bed0_temperature] T0 ; Heat buildplate,M134 T0 ; Stabilize bed temperature,M104 S[extruder1_temperature] T1 ; Heat left extruder,M133 T1 ; Stabilize left extruder temperature,G130 X127 Y127 Z40 A127 B127 ; Default stepper Vrefs,G92 A0 B0 ; Zero extruders,M135 T1 ; Load left extruder offsets,G1 X-100 Y-65 F9000 ; Move to front left corner of bed,G1 Z0.3 F6000 ; Move down to purge,G1 X90 Y-65 E24 F2000 ; Extrude a line of filament across the front edge of the bed,G1 X100 Y-65 F180 ; Wait for ooze,G1 X110 Y-65 F5000 ; Fast wipe,G1 Z1 F100 ; Lift,G92 A0 B0 ; zero extruders,M73 P1 ;@body (notify GPX body has started),; **** end of start.gcode ****
;   layerChangeGcode,
;   retractionGcode,
;   toolChangeGcode,
;   endingGcode,; **** Replicator 2X end.gcode ****,M73 P100 ; end build progress,G1 Z155 F1000 ; send Z axis to bottom of machine,M140 S0 T0 ; cool down HBP,M104 S0 T0 ; cool down right extruder,M104 S0 T1 ; cool down left extruder,M127 ; stop blower fan,G162 X Y F3000 ; home XY maximum,M18 ; disable stepper,M72 P1 ; play Ta-Da song,; **** end of end.gcode ****
;   createX3G,1
;   celebration,1
;   celebrationSong,Random Song
;   createMB5G,0
;   postProcessing,
;   defaultSpeed,4800
;   outlineUnderspeed,0.5
;   solidInfillUnderspeed,0.8
;   supportUnderspeed,0.8
;   rapidXYspeed,9000
;   rapidZspeed,1200
;   minBridgingArea,50
;   bridgingExtraInflation,0
;   bridgingExtrusionMultiplier,1
;   bridgingSpeedMultiplier,0.8
;   filamentDiameter,1.75
;   filamentPricePerKg,46
;   filamentDensity,1.25
;   useMinPrintHeight,0
;   minPrintHeight,0
;   useMaxPrintHeight,0
;   maxPrintHeight,0
;   useDiaphragm,0
;   diaphragmLayerInterval,20
;   robustSlicing,1
;   mergeAllIntoSolid,0
;   onlyRetractWhenCrossingOutline,1
;   retractBetweenLayers,1
;   useRetractionMinTravel,0
;   retractionMinTravel,3
;   retractWhileWiping,0
;   onlyWipeOutlines,1
;   avoidCrossingOutline,0
;   maxMovementDetourFactor,3
;   toolChangeRetractionDistance,12
;   toolChangeExtraRestartDistance,-0.5
;   toolChangeRetractionSpeed,600
;   allowThinWallGapFill,1
;   thinWallAllowedOverlapPercentage,10
;   horizontalSizeCompensation,0
G90
M83
; **** Replicator 2X start.gcode ****
M73 P0 ; Enable build progress
G162 X Y F3000 ; Home XY maximum
G161 Z F1200 ; Home Z minimum
G92 Z-5 ; Set Z to -5
G1 Z0 ; Move Z to 0
G161 Z F100 ; Home Z slowly
M132 X Y Z A B ; Recall home offsets
M135 T0 ; Load right extruder offsets
G1 X-130 Y-75 Z30 F9000 ; Move to wait position off table
G130 X20 Y20 Z20 A20 B20 ; Lower stepper Vrefs while heating
M127 ; Set fan speed
M140 S40 T0 ; Heat buildplate
M134 T0 ; Stabilize bed temperature
M104 S195 T1 ; Heat left extruder
M133 T1 ; Stabilize left extruder temperature
G130 X127 Y127 Z40 A127 B127 ; Default stepper Vrefs
G92 A0 B0 ; Zero extruders
M135 T1 ; Load left extruder offsets
G1 X-100 Y-65 F9000 ; Move to front left corner of bed
G1 Z0.3 F6000 ; Move down to purge
G1 X90 Y-65 E24 F2000 ; Extrude a line of filament across the front edge of the bed
G1 X100 Y-65 F180 ; Wait for ooze
G1 X110 Y-65 F5000 ; Fast wipe
G1 Z1 F100 ; Lift
G92 A0 B0 ; zero extruders
M73 P1 ;@body (notify GPX body has started)
; **** end of start.gcode ****
G1 E-1.0000 F1200
G1 Z0.394 F1200
; layer 1, Z = 0.39375
M135 T1
; tool H0.437 W0.910
; raft
G1 X-5.079 Y21.707 F9000
G1 E1.0000 F360
G1 X-6.813 Y21.228 E0.2979 F600
G1 X-7.003 Y21.166 E0.0331
G1 X-8.712 Y20.522 E0.3022
G1 X-8.895 Y20.443 E0.0331
G1 X-10.538 Y19.647 E0.3022
G1 X-10.714 Y19.552 E0.0331
G1 X-12.278 Y18.609 E0.3022
G1 X-12.444 Y18.499 E0.0331
G1 X-13.916 Y17.418 E0.3022
G1 X-14.072 Y17.293 E0.0331
G1 X-15.440 Y16.083 E0.3022
G1 X-15.583 Y15.944 E0.0331
G1 X-16.836 Y14.616 E0.3022
G1 X-16.966 Y14.464 E0.0331
G1 X-18.093 Y13.028 E0.3022
G1 X-18.209 Y12.865 E0.0331
G1 X-19.187 Y11.353 E0.2980
G1 X-19.264 Y11.224 E0.0249
G1 X-19.731 Y10.380 E0.1595
G1 X-19.798 Y10.251 E0.0242
G1 X-20.533 Y8.687 E0.2860
G1 X-20.607 Y8.510 E0.0317
G1 X-21.211 Y6.866 E0.2900
G1 X-21.270 Y6.683 E0.0318
G1 X-21.729 Y4.992 E0.2899
G1 X-21.771 Y4.805 E0.0318
G1 X-22.077 Y3.104 E0.2860
G1 X-22.098 Y2.961 E0.0239
G1 X-22.202 Y2.033 E0.1546
G1 X-22.213 Y1.893 E0.0232
G1 X-22.293 Y0.242 E0.2736
G1 X-22.295 Y0.061 E0.0300
G1 X-22.240 Y-1.556 E0.2677
G1 X-22.231 Y-1.691 E0.0225
G1 X-22.146 Y-2.576 E0.1471
G1 X-22.128 Y-2.712 E0.0227
G1 X-21.868 Y-4.343 E0.2733
G1 X-21.830 Y-4.530 E0.0317
G1 X-21.387 Y-6.297 E0.3015
G1 X-21.330 Y-6.488 E0.0330
G1 X-20.727 Y-8.212 E0.3022
G1 X-20.653 Y-8.398 E0.0331
G1 X-19.896 Y-10.059 E0.3022
G1 X-19.805 Y-10.237 E0.0331
G1 X-18.901 Y-11.824 E0.3022
G1 X-18.794 Y-11.993 E0.0332
G1 X-17.749 Y-13.492 E0.3025
G1 X-17.635 Y-13.640 E0.0309
G1 X-16.636 Y-14.841 E0.2585
G1 X-16.546 Y-14.943 E0.0226
G1 X-15.890 Y-15.639 E0.1583
G1 X-15.784 Y-15.745 E0.0248
G1 X-14.462 Y-16.968 E0.2980
G1 X-14.309 Y-17.097 E0.0331
G1 X-12.863 Y-18.210 E0.3022
G1 X-12.699 Y-18.325 E0.0331
G1 X-11.178 Y-19.289 E0.2981
G1 X-11.048 Y-19.365 E0.0249
G1 X-10.197 Y-19.826 E0.1602
G1 X-10.066 Y-19.892 E0.0242
G1 X-8.495 Y-20.613 E0.2862
G1 X-8.317 Y-20.685 E0.0318
G1 X-6.667 Y-21.274 E0.2899
G1 X-6.484 Y-21.331 E0.0318
G1 X-4.789 Y-21.774 E0.2899
G1 X-4.601 Y-21.815 E0.0318
G1 X-2.897 Y-22.105 E0.2861
G1 X-2.754 Y-22.124 E0.0240
G1 X-1.820 Y-22.221 E0.1554
G1 X-1.683 Y-22.230 E0.0227
G1 X-0.107 Y-22.294 E0.2610
G1 X0.032 Y-22.295 E0.0230
G1 X0.997 Y-22.273 E0.1598
G1 X1.139 Y-22.265 E0.0236
G1 X2.770 Y-22.121 E0.2711
G1 X2.907 Y-22.105 E0.0228
G1 X3.786 Y-21.971 E0.1471
G1 X3.928 Y-21.945 E0.0239
G1 X5.649 Y-21.567 E0.2917
G1 X5.841 Y-21.516 E0.0328
G1 X7.580 Y-20.967 E0.3020
G1 X7.768 Y-20.898 E0.0331
G1 X9.452 Y-20.192 E0.3022
G1 X9.633 Y-20.106 E0.0331
G1 X11.246 Y-19.251 E0.3022
G1 X11.418 Y-19.149 E0.0330
G1 X12.946 Y-18.151 E0.3022
G1 X13.108 Y-18.034 E0.0331
G1 X14.540 Y-16.901 E0.3022
G1 X14.691 Y-16.770 E0.0331
G1 X16.014 Y-15.512 E0.3022
G1 X16.152 Y-15.367 E0.0331
G1 X17.356 Y-13.994 E0.3022
G1 X17.481 Y-13.838 E0.0331
G1 X18.554 Y-12.361 E0.3022
G1 X18.664 Y-12.194 E0.0331
G1 X19.599 Y-10.626 E0.3022
G1 X19.692 Y-10.454 E0.0324
G1 X20.440 Y-8.900 E0.2856
G1 X20.498 Y-8.768 E0.0237
G1 X20.844 Y-7.911 E0.1530
G1 X20.894 Y-7.776 E0.0238
G1 X21.434 Y-6.135 E0.2860
G1 X21.486 Y-5.950 E0.0318
G1 X21.887 Y-4.245 E0.2900
G1 X21.923 Y-4.056 E0.0318
G1 X22.170 Y-2.342 E0.2867
G1 X22.186 Y-2.199 E0.0237
G1 X22.257 Y-1.295 E0.1501
G1 X22.264 Y-1.160 E0.0224
G1 X22.291 Y0.433 E0.2637
G1 X22.286 Y0.613 E0.0299
G1 X22.178 Y2.269 E0.2747
G1 X22.165 Y2.407 E0.0229
G1 X22.051 Y3.289 E0.1471
G1 X22.029 Y3.426 E0.0230
G1 X21.711 Y5.067 E0.2767
G1 X21.667 Y5.254 E0.0318
G1 X21.165 Y7.006 E0.3016
G1 X21.102 Y7.195 E0.0331
G1 X20.442 Y8.898 E0.3022
G1 X20.362 Y9.081 E0.0331
G1 X19.550 Y10.717 E0.3022
G1 X19.453 Y10.891 E0.0331
G1 X18.497 Y12.447 E0.3022
G1 X18.385 Y12.612 E0.0331
G1 X17.291 Y14.074 E0.3022
G1 X17.164 Y14.229 E0.0331
G1 X15.942 Y15.585 E0.3022
G1 X15.802 Y15.728 E0.0331
G1 X14.462 Y16.968 E0.3022
G1 X14.309 Y17.097 E0.0331
G1 X12.863 Y18.210 E0.3022
G1 X12.699 Y18.325 E0.0331
G1 X11.178 Y19.289 E0.2981
G1 X11.048 Y19.365 E0.0249
G1 X10.197 Y19.827 E0.1602
G1 X10.066 Y19.892 E0.0242
G1 X8.495 Y20.613 E0.2862
G1 X8.317 Y20.685 E0.0318
G1 X6.667 Y21.274 E0.2899
G1 X6.484 Y21.331 E0.0318
G1 X4.789 Y21.774 E0.2899
G1 X4.601 Y21.815 E0.0318
G1 X2.897 Y22.105 E0.2861
G1 X2.754 Y22.124 E0.0240
G1 X1.820 Y22.221 E0.1554
G1 X1.683 Y22.230 E0.0227
G1 X0.102 Y22.294 E0.2619
G1 X-0.048 Y22.295 E0.0247
G1 X-1.170 Y22.264 E0.1859
G1 X-1.277 Y22.258 E0.0177
G1 X-2.146 Y22.192 E0.1442
G1 X-2.283 Y22.177 E0.0229
G1 X-3.903 Y21.950 E0.2707
G1 X-4.040 Y21.926 E0.0231
G1 X-4.936 Y21.742 E0.1513
G1 X-5.079 Y21.707 E0.0244
G1 X8.144 Y20.000 F9000
G1 X-8.113 Y20.000 E2.6908 F600
G1 X-8.450 Y19.873 E0.0597
G1 X-8.605 Y19.806 E0.0278
G1 X-10.219 Y19.024 E0.2969
G1 X-10.367 Y18.944 E0.0278
G1 X-11.903 Y18.018 E0.2969
G1 X-11.930 Y18.000 E0.0054
G1 X11.904 Y18.000 E3.9450
G1 X12.310 Y17.742 E0.0797
G1 X12.448 Y17.646 E0.0279
G1 X13.870 Y16.552 E0.2969
G1 X13.998 Y16.443 E0.0279
G1 X14.477 Y16.000 E0.1080
G1 X-14.477 Y16.000 E4.7925
G1 X-14.964 Y15.570 E0.1076
G1 X-15.085 Y15.452 E0.0279
G1 X-16.315 Y14.147 E0.2968
G1 X-16.425 Y14.020 E0.0279
G1 X-16.440 Y14.000 E0.0041
G1 X16.428 Y14.000 E5.4404
G1 X16.633 Y13.772 E0.0508
G1 X16.740 Y13.642 E0.0279
G1 X17.815 Y12.205 E0.2969
G1 X17.909 Y12.066 E0.0278
G1 X17.950 Y12.000 E0.0129
G1 X-17.934 Y12.000 E5.9396
G1 X-18.592 Y10.983 E0.2006
G1 X-18.658 Y10.874 E0.0210
G1 X-19.113 Y10.051 E0.1556
G1 X-19.139 Y10.000 E0.0096
G1 X19.124 Y10.000 E6.3335
G1 X19.727 Y8.784 E0.2246
G1 X19.795 Y8.630 E0.0278
G1 X20.039 Y8.000 E0.1119
G1 X-20.048 Y8.000 E6.6354
G1 X-20.549 Y6.638 E0.2401
G1 X-20.598 Y6.484 E0.0267
G1 X-20.730 Y6.000 E0.0831
G1 X20.725 Y6.000 E6.8616
G1 X20.989 Y5.076 E0.1590
G1 X21.027 Y4.919 E0.0268
G1 X21.205 Y4.000 E0.1549
G1 X-21.204 Y4.000 E7.0196
G1 X-21.386 Y2.991 E0.1696
G1 X-21.403 Y2.871 E0.0201
G1 X-21.501 Y2.000 E0.1451
G1 X21.494 Y2.000 E7.1167
G1 X21.587 Y0.582 E0.2352
G1 X21.590 Y0.430 E0.0251
G1 X21.583 Y0.000 E0.0712
G1 X-21.592 Y0.000 E7.1464
G1 X-21.540 Y-1.521 E0.2519
G1 X-21.533 Y-1.635 E0.0189
G1 X-21.498 Y-2.000 E0.0607
G1 X21.500 Y-2.000 E7.1170
G1 X21.489 Y-2.133 E0.0221
G1 X21.476 Y-2.253 E0.0199
G1 X21.232 Y-3.941 E0.2823
G1 X21.221 Y-4.000 E0.0100
G1 X-21.214 Y-4.000 E7.0238
G1 X-21.179 Y-4.217 E0.0364
G1 X-21.147 Y-4.375 E0.0266
G1 X-20.740 Y-6.000 E0.2773
G1 X20.742 Y-6.000 E6.8660
G1 X20.232 Y-7.547 E0.2695
G1 X20.191 Y-7.660 E0.0200
G1 X20.054 Y-8.000 E0.0607
G1 X-20.058 Y-8.000 E6.6393
G1 X-20.009 Y-8.122 E0.0218
G1 X-19.266 Y-9.755 E0.2969
G1 X-19.189 Y-9.904 E0.0278
G1 X-19.135 Y-10.000 E0.0182
G1 X19.134 Y-10.000 E6.3343
G1 X19.068 Y-10.136 E0.0250
G1 X18.990 Y-10.281 E0.0273
G1 X18.071 Y-11.822 E0.2970
G1 X17.979 Y-11.962 E0.0278
G1 X17.951 Y-12.000 E0.0077
G1 X-17.936 Y-12.000 E5.9401
G1 X-17.183 Y-13.079 E0.2178
G1 X-17.088 Y-13.204 E0.0260
G1 X-16.426 Y-14.000 E0.1714
G1 X16.420 Y-14.000 E5.4366
G1 X15.636 Y-14.894 E0.1968
G1 X15.520 Y-15.015 E0.0278
G1 X14.485 Y-16.000 E0.2365
G1 X-14.477 Y-16.000 E4.7938
G1 X-13.998 Y-16.443 E0.1080
G1 X-13.870 Y-16.552 E0.0279
G1 X-12.448 Y-17.646 E0.2969
G1 X-12.310 Y-17.742 E0.0279
G1 X-11.904 Y-18.000 E0.0797
G1 X11.897 Y-18.000 E3.9396
G1 X11.048 Y-18.555 E0.1678
G1 X10.904 Y-18.640 E0.0278
G1 X9.319 Y-19.481 E0.2970
G1 X9.167 Y-19.553 E0.0278
G1 X8.099 Y-20.000 E0.1916
G1 X-8.144 Y-20.000 E2.6886
G1 E-1.0000 F1200
; layer 2, Z = 0.83125
M126 S255
; tool H0.437 W0.700
; raft
G1 X-8.495 Y-20.613 F9000
G1 Z0.831 F1200
G1 E1.0000 F1200
G1 X-8.317 Y-20.685 E0.0244 F1200
G1 X-6.667 Y-21.274 E0.2230
G1 X-6.484 Y-21.331 E0.0245
G1 X-4.789 Y-21.774 E0.2230
G1 X-4.601 Y-21.815 E0.0244
G1 X-2.897 Y-22.105 E0.2201
G1 X-2.754 Y-22.124 E0.0185
G1 X-1.820 Y-22.221 E0.1195
G1 X-1.683 Y-22.230 E0.0175
G1 X-0.107 Y-22.294 E0.2007
G1 X0.032 Y-22.295 E0.0177
G1 X0.997 Y-22.273 E0.1229
G1 X1.139 Y-22.265 E0.0181
G1 X2.770 Y-22.121 E0.2085
G1 X2.907 Y-22.105 E0.0175
G1 X3.786 Y-21.971 E0.1132
G1 X3.928 Y-21.945 E0.0184
G1 X5.649 Y-21.567 E0.2244
G1 X5.841 Y-21.516 E0.0252
G1 X7.580 Y-20.967 E0.2323
G1 X7.768 Y-20.898 E0.0255
G1 X9.452 Y-20.192 E0.2325
G1 X9.633 Y-20.106 E0.0255
G1 X11.246 Y-19.251 E0.2325
G1 X11.418 Y-19.149 E0.0254
G1 X12.946 Y-18.151 E0.2325
G1 X13.108 Y-18.034 E0.0254
G1 X14.540 Y-16.901 E0.2325
G1 X14.691 Y-16.770 E0.0255
G1 X16.014 Y-15.512 E0.2325
G1 X16.152 Y-15.367 E0.0255
G1 X17.356 Y-13.994 E0.2324
G1 X17.481 Y-13.838 E0.0255
G1 X18.554 Y-12.361 E0.2325
G1 X18.664 Y-12.194 E0.0254
G1 X19.599 Y-10.626 E0.2325
G1 X19.692 Y-10.454 E0.0249
G1 X20.440 Y-8.900 E0.2197
G1 X20.498 Y-8.768 E0.0183
