; G-Code generated by Simplify3D(TM) Version 2.1.1
; ago 9, 2014 at 1:33:28 P.M.
; Settings Summary
;   processName,Flexible Filament
;   applyToModels,FlexTooter-RepReed
;   printMaterial,ABS
;   printQuality,Medium
;   extruderName,Right Extruder,Left Extruder
;   extruderToolheadNumber,0,1
;   extruderDiameter,0.4,0.4
;   extruderAutoWidth,0,0
;   extruderWidth,0.4,0.4
;   extrusionMultiplier,1,1
;   extruderUseRetract,1,1
;   extruderRetractionDistance,1,3
;   extruderExtraRestartDistance,0,0
;   extruderRetractionZLift,0,0
;   extruderRetractionSpeed,1200,1200
;   extruderUseCoasting,0,0
;   extruderCoastingDistance,0.2,0.2
;   extruderUseWipe,0,1
;   extruderWipeDistance,5,3
;   primaryExtruder,1
;   layerHeight,0.2
;   topSolidLayers,3
;   bottomSolidLayers,3
;   perimeterOutlines,2
;   printPerimetersInsideOut,1
;   startPointOption,2
;   startPointOriginX,0
;   startPointOriginY,0
;   startPointOriginZ,300
;   sequentialIslands,0
;   spiralVaseMode,0
;   firstLayerHeightRatio,0.9
;   firstLayerUnderspeed,0.5
;   useRaft,0
;   raftLayers,3
;   raftOffset,3
;   raftSeparationDistance,0.14
;   raftInfill,85
;   disableRaftBaseLayers,0
;   useSkirt,1
;   skirtLayers,1
;   skirtOutlines,2
;   skirtOffset,4
;   infillExtruder,1
;   externalInfillPattern,Rectilinear
;   infillPercentage,100
;   outlineOverlapPercentage,20
;   minInfillLength,5
;   infillLayerInterval,1
;   randomInfillStartPoint,1
;   infillAngles,45,-45
;   generateSupport,1
;   supportExtruder,1
;   supportInfill,15
;   supportExtraInflation,0
;   supportLayerInterval,1
;   supportHorizontalPartOffset,0.3
;   supportUpperSeparationLayers,1
;   supportLowerSeparationLayers,1
;   supportGridSpacing,4
;   maxOverhangAngle,45
;   supportAngles,0
;   temperatureName,Right Extruder,Left Extruder,Heated Build Platform
;   temperatureNumber,0,1,0
;   temperatureSetpointCount,1,1,1
;   temperatureSetpointLayers,1,1,1
;   temperatureSetpointTemperatures,0,200,110
;   temperatureStabilizeAtStartup,0,0,0
;   temperatureHeatedBed,0,0,1
;   temperatureRelayBetweenLayers,0,0,0
;   temperatureRelayBetweenLoops,0,0,0
;   fanLayers,1
;   fanSpeeds,0
;   blipFanToFullPower,0
;   adjustSpeedForCooling,1
;   minSpeedLayerTime,15
;   minCoolingSpeedSlowdown,20
;   increaseFanForCooling,0
;   minFanLayerTime,45
;   maxCoolingFanSpeed,100
;   increaseFanForBridging,0
;   bridgingFanSpeed,100
;   use5D,1
;   relativeEdistances,1
;   allowEaxisZeroing,0
;   includeM10123,0
;   stickySupport,1
;   detectArcs,0
;   arcReplaceG2G3,0
;   arcRadialCompensation,1
;   gcodeXoffset,0
;   gcodeYoffset,0
;   gcodeZoffset,0
;   overrideMachineDefinition,1
;   machineTypeOverride,0
;   strokeXoverride,250
;   strokeYoverride,150
;   strokeZoverride,150
;   originOffsetXoverride,125
;   originOffsetYoverride,75
;   originOffsetZoverride,0
;   homeXdirOverride,1
;   homeYdirOverride,1
;   homeZdirOverride,-1
;   flipXoverride,1
;   flipYoverride,-1
;   flipZoverride,1
;   startingGcode,; **** Replicator 2X start.gcode ****,M73 P0 ; enable build progress,G162 X Y F3000 ; home XY maximum,G161 Z F1200 ; home Z minimum,G92 Z-5 ; set Z to -5,G1 Z0 ; move Z to 0,G161 Z F100 ; home Z slowly,M132 X Y Z A B ; recall home offsets,M135 T0 ; load right extruder offsets,G1 X-130 Y-75 Z30 F9000 ; move to wait position off table,G130 X20 Y20 Z20 A20 B20 ; lower stepper Vrefs while heating,M126 S[fan_speed_pwm],M140 S[bed0_temperature] T0,M134 T0 ; stabilize bed temperature,M104 S[extruder1_temperature] T1,M133 T1 ; stabilize extruder temperature,G130 X127 Y127 Z40 A127 B127 ; default stepper Vrefs,G92 A0 B0 ; zero extruders,M135 T1 ; load left extruder offsets,G1 Z0.4 ; position nozzle,G1 E25 F300 ; purge nozzle,G1 X-125 Y-70 Z0.15 F1200 ; slow wipe,G1 X-120 Y-65 Z0.5 F1200 ; lift,G92 A0 B0 ; zero extruders,M73 P1 ;@body (notify GPX body has started),; **** end of start.gcode ****
;   layerChangeGcode,
;   toolChangeGcode,
;   endingGcode,; **** Replicator 2X end.gcode ****,M73 P100 ; end build progress,G0 Z155 F1000 ; send Z axis to bottom of machine,M140 S0 T0 ; cool down HBP,M104 S0 T0 ; cool down right extruder,M104 S0 T1 ; cool down left extruder,M127 ; stop blower fan,G162 X Y F3000 ; home XY maximum,M18 ; disable stepper,M72 P1 ; play Ta-Da song,; **** end of end.gcode ****
;   createX3G,1
;   celebration,1
;   celebrationSong,Take On Me
;   postProcessing,
;   defaultSpeed,3000
;   outlineUnderspeed,0.5
;   supportUnderspeed,0.8
;   rapidXYspeed,9000
;   rapidZspeed,1200
;   minBridgingArea,50
;   bridgingExtrusionMultiplier,1
;   bridgingSpeedMultiplier,0.8
;   filamentDiameter,1.75
;   filamentPricePerKg,46
;   useMinPrintHeight,0
;   minPrintHeight,0
;   useMaxPrintHeight,0
;   maxPrintHeight,0
;   overlapRemoval,0
;   overlapRemovalPercentage,0.3
;   useDiaphragm,0
;   diaphragmLayerInterval,20
;   robustSlicing,1
;   mergeAllIntoSolid,0
;   onlyRetractWhenCrossingOutline,1
;   retractBetweenLayers,1
;   useRetractionMinTravel,0
;   retractionMinTravel,3
;   useRetractionOozeRate,0
;   retractionOozeRate,100
;   onlyWipeOutlines,1
G90 ; use absolute coordinates
M83 ; relative extrusion distances
G21 ; set units to millimeters
; **** Replicator 2X start.gcode ****
M73 P0 ; enable build progress
G162 X Y F3000 ; home XY maximum
G161 Z F1200 ; home Z minimum
G92 Z-5 ; set Z to -5
G1 Z0 ; move Z to 0
G161 Z F100 ; home Z slowly
M132 X Y Z A B ; recall home offsets
M135 T0 ; load right extruder offsets
G1 X-130 Y-75 Z30 F9000 ; move to wait position off table
G130 X20 Y20 Z20 A20 B20 ; lower stepper Vrefs while heating
M127
M140 S110 T0
M134 T0 ; stabilize bed temperature
M104 S200 T1
M133 T1 ; stabilize extruder temperature
G130 X127 Y127 Z40 A127 B127 ; default stepper Vrefs
G92 A0 B0 ; zero extruders
M135 T1 ; load left extruder offsets
G1 Z0.4 ; position nozzle
G1 E25 F300 ; purge nozzle
G1 X-125 Y-70 Z0.15 F1200 ; slow wipe
G1 X-120 Y-65 Z0.5 F1200 ; lift
G92 A0 B0 ; zero extruders
M73 P1 ;@body (notify GPX body has started)
; **** end of start.gcode ****
G1 E-3 F1200
; layer 1, Z = 0.18
M135 T1
; tool H0.2 W0.4
G0 X0.189 Y-10.596 F9000
G0 Z0.18 F1200
G1 E3 F360
G1 X1.084 Y-10.564 E0.0298 F1500
G1 X2.208 Y-10.442 E0.0376
G1 X3.271 Y-10.246 E0.036
G1 X4.412 Y-9.945 E0.0392
G1 X5.484 Y-9.565 E0.0378
G1 X6.531 Y-9.093 E0.0382
G1 X7.531 Y-8.533 E0.0382
G1 X8.451 Y-7.903 E0.0371
G1 X9.33 Y-7.171 E0.038
G1 X10.148 Y-6.333 E0.039
G1 X10.847 Y-5.446 E0.0375
G1 X11.469 Y-4.442 E0.0393
G1 X11.958 Y-3.394 E0.0385
G1 X12.303 Y-2.333 E0.0371
G1 X12.454 Y-1.638 E0.0236
G1 X12.553 Y-0.97 E0.0225
G1 X12.608 Y0.122 E0.0364
G1 X12.521 Y1.264 E0.0381
G1 X12.291 Y2.389 E0.0382
G1 X11.946 Y3.416 E0.0361
G1 X11.653 Y4.072 E0.0239
G1 X11.338 Y4.67 E0.0225
G1 X10.731 Y5.608 E0.0372
G1 X9.967 Y6.535 E0.0399
G1 X9.136 Y7.345 E0.0386
G1 X8.275 Y8.033 E0.0367
G1 X7.368 Y8.633 E0.0362
G1 X6.397 Y9.16 E0.0367
G1 X5.337 Y9.623 E0.0385
G1 X4.266 Y9.989 E0.0376
G1 X3.184 Y10.266 E0.0372
G1 X2.087 Y10.459 E0.0371
G1 X0.968 Y10.573 E0.0374
G1 X-0.199 Y10.602 E0.0388
G1 X-1.331 Y10.545 E0.0377
G1 X-2.444 Y10.406 E0.0373
G1 X-3.585 Y10.173 E0.0387
G1 X-4.667 Y9.863 E0.0374
G1 X-5.74 Y9.459 E0.0381
G1 X-6.701 Y9.005 E0.0354
G1 X-7.666 Y8.448 E0.0371
G1 X-8.614 Y7.778 E0.0386
G1 X-9.475 Y7.034 E0.0378
G1 X-10.238 Y6.229 E0.0369
G1 X-10.916 Y5.347 E0.037
G1 X-11.525 Y4.338 E0.0392
G1 X-11.985 Y3.324 E0.037
G1 X-12.337 Y2.213 E0.0387
G1 X-12.55 Y1.044 E0.0395
G1 X-12.608 Y-0.133 E0.0392
G1 X-12.518 Y-1.287 E0.0385
G1 X-12.28 Y-2.431 E0.0389
G1 X-11.914 Y-3.504 E0.0377
G1 X-11.425 Y-4.523 E0.0376
G1 X-10.798 Y-5.515 E0.039
G1 X-10.072 Y-6.419 E0.0386
G1 X-9.276 Y-7.219 E0.0376
G1 X-8.418 Y-7.928 E0.037
G1 X-7.489 Y-8.559 E0.0374
G1 X-6.539 Y-9.089 E0.0362
G1 X-5.46 Y-9.574 E0.0393
G1 X-4.437 Y-9.937 E0.0361
G1 X-3.241 Y-10.254 E0.0412
G1 X-2.095 Y-10.458 E0.0387
G1 X-1.044 Y-10.567 E0.0351
G1 X0.012 Y-10.603 E0.0351
G1 X0.189 Y-10.596 E0.0059
G0 X0.173 Y-10.196 F9000
G1 X1.055 Y-10.165 E0.0294 F1500
G1 X2.15 Y-10.046 E0.0366
G1 X3.184 Y-9.856 E0.035
G1 X4.294 Y-9.562 E0.0382
G1 X5.335 Y-9.193 E0.0367
G1 X6.35 Y-8.736 E0.037
G1 X7.32 Y-8.193 E0.037
G1 X8.21 Y-7.584 E0.0358
G1 X9.058 Y-6.877 E0.0367
G1 X9.847 Y-6.069 E0.0376
G1 X10.519 Y-5.216 E0.0361
G1 X11.117 Y-4.252 E0.0378
G1 X11.585 Y-3.247 E0.0369
G1 X11.916 Y-2.228 E0.0356
G1 X12.061 Y-1.566 E0.0225
G1 X12.155 Y-0.93 E0.0214
G1 X12.208 Y0.117 E0.0349
G1 X12.124 Y1.209 E0.0364
G1 X11.904 Y2.284 E0.0365
G1 X11.573 Y3.27 E0.0346
G1 X11.293 Y3.897 E0.0228
G1 X10.992 Y4.468 E0.0215
G1 X10.408 Y5.372 E0.0358
G1 X9.672 Y6.264 E0.0385
G1 X8.871 Y7.045 E0.0372
G1 X8.04 Y7.709 E0.0354
G1 X7.161 Y8.289 E0.035
G1 X6.221 Y8.8 E0.0356
G1 X5.192 Y9.25 E0.0374
G1 X4.152 Y9.605 E0.0366
G1 X3.1 Y9.874 E0.0361
G1 X2.032 Y10.063 E0.0361
G1 X0.943 Y10.173 E0.0364
G1 X-0.194 Y10.202 E0.0378
G1 X-1.296 Y10.146 E0.0367
G1 X-2.379 Y10.011 E0.0363
G1 X-3.49 Y9.784 E0.0377
G1 X-4.541 Y9.483 E0.0364
G1 X-5.584 Y9.091 E0.0371
G1 X-6.516 Y8.651 E0.0343
G1 X-7.45 Y8.111 E0.0359
G1 X-8.367 Y7.463 E0.0374
G1 X-9.198 Y6.745 E0.0365
G1 X-9.933 Y5.969 E0.0355
G1 X-10.585 Y5.122 E0.0356
G1 X-11.17 Y4.151 E0.0377
G1 X-11.611 Y3.18 E0.0355
G1 X-11.948 Y2.117 E0.0371
G1 X-12.152 Y0.998 E0.0378
G1 X-12.208 Y-0.127 E0.0375
G1 X-12.121 Y-1.23 E0.0368
G1 X-11.893 Y-2.325 E0.0372
G1 X-11.543 Y-3.352 E0.0361
G1 X-11.075 Y-4.329 E0.036
G1 X-10.472 Y-5.282 E0.0375
G1 X-9.774 Y-6.152 E0.0371
G1 X-9.006 Y-6.923 E0.0362
G1 X-8.178 Y-7.607 E0.0357
G1 X-7.279 Y-8.218 E0.0362
G1 X-6.359 Y-8.732 E0.0351
G1 X-5.311 Y-9.203 E0.0382
G1 X-4.319 Y-9.554 E0.035
G1 X-3.154 Y-9.863 E0.0401
G1 X-2.039 Y-10.062 E0.0377
G1 X-1.016 Y-10.168 E0.0342
G1 X0.011 Y-10.203 E0.0342
G1 X0.173 Y-10.196 E0.0054
G1 E-3 F1200
G0 X0.21 Y-5.395 F9000
G1 E3 F1200
G1 X0.723 Y-5.351 E0.0171 F1125
G1 X1.231 Y-5.257 E0.0172
G1 X1.728 Y-5.115 E0.0172
G1 X2.22 Y-4.922 E0.0176
G1 X2.699 Y-4.676 E0.0179
G1 X3.157 Y-4.38 E0.0181
G1 X3.587 Y-4.036 E0.0183
G1 X3.982 Y-3.646 E0.0185
G1 X4.245 Y-3.337 E0.0135
G1 X4.563 Y-2.886 E0.0184
G1 X4.823 Y-2.427 E0.0175
G1 X5.054 Y-1.9 E0.0191
G1 X5.083 Y-1.823 E0.0027
G1 X5.247 Y-1.272 E0.0191
G1 X5.345 Y-0.764 E0.0172
G1 X5.394 Y-0.248 E0.0173
G1 X5.395 Y0.206 E0.0151
G1 X5.351 Y0.723 E0.0173
G1 X5.257 Y1.231 E0.0172
G1 X5.115 Y1.728 E0.0172
G1 X4.922 Y2.22 E0.0176
G1 X4.676 Y2.699 E0.0179
G1 X4.38 Y3.157 E0.0181
G1 X4.036 Y3.586 E0.0183
G1 X3.646 Y3.982 E0.0185
G1 X3.337 Y4.245 E0.0135
G1 X2.886 Y4.563 E0.0184
G1 X2.427 Y4.823 E0.0175
G1 X1.911 Y5.05 E0.0187
G1 X1.401 Y5.214 E0.0178
G1 X0.89 Y5.325 E0.0174
G1 X0.399 Y5.384 E0.0165
G1 X-0.21 Y5.395 E0.0203
G1 X-0.723 Y5.351 E0.0171
G1 X-1.231 Y5.257 E0.0172
G1 X-1.728 Y5.115 E0.0172
G1 X-2.22 Y4.922 E0.0176
G1 X-2.699 Y4.676 E0.0179
G1 X-3.157 Y4.38 E0.0181
G1 X-3.586 Y4.036 E0.0183
G1 X-3.982 Y3.646 E0.0185
G1 X-4.245 Y3.337 E0.0135
G1 X-4.563 Y2.886 E0.0184
G1 X-4.823 Y2.427 E0.0175
G1 X-5.05 Y1.911 E0.0187
G1 X-5.214 Y1.401 E0.0178
G1 X-5.325 Y0.89 E0.0174
G1 X-5.384 Y0.4 E0.0164
G1 X-5.394 Y-0.224 E0.0207
G1 X-5.351 Y-0.723 E0.0167
G1 X-5.257 Y-1.231 E0.0172
G1 X-5.115 Y-1.728 E0.0172
G1 X-4.922 Y-2.22 E0.0176
G1 X-4.676 Y-2.699 E0.0179
G1 X-4.38 Y-3.157 E0.0181
G1 X-4.036 Y-3.586 E0.0183
G1 X-3.646 Y-3.982 E0.0185
G1 X-3.337 Y-4.245 E0.0135
G1 X-2.886 Y-4.563 E0.0184
G1 X-2.427 Y-4.823 E0.0175
G1 X-1.911 Y-5.05 E0.0187
G1 X-1.401 Y-5.214 E0.0178
G1 X-0.89 Y-5.325 E0.0174
G1 X-0.399 Y-5.384 E0.0165
G1 X0.21 Y-5.395 E0.0203
G0 X3.603 Y-2.984 F9000
G1 X-3.6 Y-2.984 E0.2396 F1125
G1 X-3.6 Y-1.4 E0.0527
G1 X-2.305 Y-1.4 E0.0431
G1 X-2.349 Y-1.328 E0.0028
G1 X-2.487 Y-0.975 E0.0126
G1 X-2.589 Y-0.471 E0.0171
G1 X-2.599 Y-0.105 E0.0122
G1 X-2.56 Y0.256 E0.0121
G1 X-2.427 Y0.731 E0.0164
G1 X-2.258 Y1.083 E0.013
G1 X-2.031 Y1.418 E0.0134
G1 X-1.763 Y1.704 E0.013
G1 X-1.443 Y1.956 E0.0135
G1 X-1.093 Y2.152 E0.0134
G1 X-0.736 Y2.287 E0.0127
G1 X-0.256 Y2.381 E0.0163
G1 X0.211 Y2.385 E0.0155
G1 X0.572 Y2.329 E0.0121
G1 X0.95 Y2.214 E0.0131
G1 X1.392 Y1.989 E0.0165
G1 X1.723 Y1.74 E0.0138
G1 X2.002 Y1.452 E0.0134
G1 X2.162 Y1.236 E0.0089
G1 X2.306 Y0.995 E0.0093
G1 X2.454 Y0.654 E0.0123
G1 X2.556 Y0.28 E0.0129
G1 X2.602 Y-0.18 E0.0154
G1 X2.572 Y-0.607 E0.0142
G1 X2.443 Y-1.108 E0.0172
G1 X2.299 Y-1.4 E0.0108
G1 X3.603 Y-1.4 E0.0434
G1 X3.603 Y-2.984 E0.0527
G0 X0.224 Y-5.795 F9000
G1 X0.776 Y-5.747 E0.0185 F750
G1 X1.322 Y-5.647 E0.0185
G1 X1.856 Y-5.495 E0.0185
G1 X2.385 Y-5.287 E0.0189
G1 X2.899 Y-5.023 E0.0192
G1 X3.391 Y-4.705 E0.0195
G1 X3.853 Y-4.335 E0.0197
G1 X4.276 Y-3.918 E0.0198
G1 X4.561 Y-3.582 E0.0147
G1 X4.902 Y-3.1 E0.0196
G1 X5.181 Y-2.606 E0.0189
G1 X5.426 Y-2.049 E0.0202
G1 X5.463 Y-1.949 E0.0035
G1 X5.636 Y-1.368 E0.0202
G1 X5.741 Y-0.821 E0.0185
G1 X5.794 Y-0.267 E0.0185
G1 X5.795 Y0.222 E0.0163
G1 X5.747 Y0.776 E0.0185
G1 X5.647 Y1.322 E0.0185
G1 X5.495 Y1.856 E0.0185
G1 X5.287 Y2.385 E0.0189
G1 X5.023 Y2.899 E0.0192
G1 X4.705 Y3.391 E0.0195
G1 X4.335 Y3.853 E0.0197
G1 X3.919 Y4.276 E0.0198
G1 X3.582 Y4.561 E0.0147
G1 X3.1 Y4.901 E0.0196
G1 X2.606 Y5.181 E0.0189
G1 X2.053 Y5.424 E0.0201
G1 X1.505 Y5.601 E0.0191
G1 X0.957 Y5.72 E0.0187
G1 X0.427 Y5.784 E0.0178
G1 X-0.224 Y5.795 E0.0216
G1 X-0.776 Y5.747 E0.0185
G1 X-1.322 Y5.647 E0.0185
G1 X-1.856 Y5.495 E0.0185
G1 X-2.385 Y5.287 E0.0189
G1 X-2.899 Y5.023 E0.0192
G1 X-3.391 Y4.705 E0.0195
G1 X-3.853 Y4.335 E0.0197
G1 X-4.276 Y3.919 E0.0198
G1 X-4.561 Y3.582 E0.0147
G1 X-4.902 Y3.1 E0.0196
G1 X-5.181 Y2.606 E0.0189
G1 X-5.424 Y2.053 E0.0201
G1 X-5.601 Y1.505 E0.0191
G1 X-5.72 Y0.957 E0.0187
G1 X-5.784 Y0.427 E0.0178
G1 X-5.795 Y-0.238 E0.0221
G1 X-5.747 Y-0.776 E0.018
G1 X-5.647 Y-1.322 E0.0185
G1 X-5.495 Y-1.856 E0.0185
G1 X-5.287 Y-2.385 E0.0189
G1 X-5.023 Y-2.899 E0.0192
G1 X-4.705 Y-3.391 E0.0195
G1 X-4.335 Y-3.853 E0.0197
G1 X-3.919 Y-4.276 E0.0198
G1 X-3.582 Y-4.561 E0.0147
G1 X-3.1 Y-4.901 E0.0196
G1 X-2.606 Y-5.181 E0.0189
G1 X-2.053 Y-5.424 E0.0201
G1 X-1.505 Y-5.601 E0.0191
G1 X-0.957 Y-5.72 E0.0187
G1 X-0.427 Y-5.784 E0.0178
G1 X0.224 Y-5.795 E0.0216
G0 X0.776 Y-5.747 F750
G0 X1.322 Y-5.647 F750
G0 X1.856 Y-5.495 F750
G0 X2.385 Y-5.287 F750
G0 X2.899 Y-5.023 F750
G0 X3.058 Y-4.92 F750
G0 X3.203 Y-2.584 F9000
G1 X-3.2 Y-2.584 E0.213 F750
G1 X-3.2 Y-1.8 E0.0261
G1 X-1.517 Y-1.8 E0.056
G1 X-1.536 Y-1.784 E0.0008
G1 X-1.754 Y-1.538 E0.011
G1 X-1.989 Y-1.15 E0.0151
G1 X-2.101 Y-0.861 E0.0103
G1 X-2.19 Y-0.425 E0.0148
G1 X-2.199 Y-0.121 E0.0101
G1 X-2.166 Y0.18 E0.01
G1 X-2.051 Y0.59 E0.0142
G1 X-1.91 Y0.884 E0.0108
G1 X-1.717 Y1.167 E0.0114
G1 X-1.492 Y1.409 E0.011
G1 X-1.22 Y1.622 E0.0115
G1 X-0.924 Y1.789 E0.0113
G1 X-0.626 Y1.901 E0.0106
G1 X-0.216 Y1.982 E0.0139
G1 X0.182 Y1.984 E0.0132
G1 X0.483 Y1.938 E0.0101
G1 X0.8 Y1.842 E0.011
G1 X1.18 Y1.649 E0.0142
G1 X1.458 Y1.44 E0.0115
G1 X1.697 Y1.192 E0.0114
G1 X1.829 Y1.014 E0.0074
G1 X1.949 Y0.812 E0.0078
G1 X2.076 Y0.522 E0.0105
G1 X2.161 Y0.207 E0.0108
G1 X2.2 Y-0.186 E0.0131
G1 X2.175 Y-0.542 E0.0119
G1 X2.066 Y-0.968 E0.0146
G1 X1.863 Y-1.381 E0.0153
G1 X1.673 Y-1.638 E0.0106
G1 X1.513 Y-1.8 E0.0076
G1 X3.203 Y-1.8 E0.0562
G1 X3.203 Y-2.584 E0.0261
G1 E-3 F1200
G0 X0.203 Y-2.584 F750
G0 X2.855 Y-0.79 F9000
G1 E3 F1200
G1 X3.145 Y-1.08 E0.0137 F1500
G1 X3.711 Y-1.08 E0.0188
G0 X3.923 Y-2.989 F9000
G1 X4.026 Y-3.092 E0.0048 F1500
G1 X4.26 Y-2.76 E0.0135
G1 X3.923 Y-2.423 E0.0159
G1 X3.923 Y-1.858 E0.0188
G1 X4.469 Y-2.403 E0.0257
G1 X4.537 Y-2.283 E0.0046
G1 X4.652 Y-2.021 E0.0095
G1 X3.923 Y-1.292 E0.0343
G1 X3.923 Y-1.08 E0.0071
G1 X3.711 Y-1.08 E0.0071
G1 X2.915 Y-0.284 E0.0374
G1 X2.923 Y-0.175 E0.0036
G1 X2.873 Y0.324 E0.0167
G1 X4.811 Y-1.614 E0.0912
G1 X4.936 Y-1.196 E0.0145
G1 X4.94 Y-1.177 E0.0007
G1 X2.547 Y1.215 E0.1125
G1 X2.429 Y1.414 E0.0077
G1 X2.247 Y1.659 E0.0102
G1 X1.936 Y1.981 E0.0149
G1 X1.562 Y2.262 E0.0156
G1 X1.437 Y2.326 E0.0047
G0 X3.85 Y3.306 F9000
G1 X3.796 Y3.374 E0.0029 F1500
G1 X3.428 Y3.748 E0.0175
G1 X3.302 Y3.855 E0.0055
G1 X3.85 Y3.306 E0.0258
G1 X4.12 Y2.97 E0.0143
G1 X4.399 Y2.539 E0.0171
G1 X4.63 Y2.088 E0.0168
G1 X4.712 Y1.879 E0.0075
G1 X1.875 Y4.716 E0.1334
G1 X1.797 Y4.75 E0.0028
