; G-Code generated by Simplify3D(TM) Version 2.1.0
; May 5, 2014 at 10:33:45 AM
; Settings Summary
;   processName,ABS and Flex
;   applyToModels,FLEX TOOTER replaceable reed
;   printMaterial,ABS
;   printQuality,Medium
;   extruderName,Right Extruder,Left Extruder
;   extruderToolheadNumber,0,1
;   extruderDiameter,0.4,0.4
;   extruderAutoWidth,0,0
;   extruderWidth,0.4,0.4
;   extrusionMultiplier,1,1
;   extruderUseRetract,1,1
;   extruderRetractionDistance,1,1
;   extruderExtraRestartDistance,0,0
;   extruderRetractionZLift,0,0
;   extruderRetractionSpeed,1200,1200
;   extruderUseCoasting,0,0
;   extruderCoastingDistance,0.2,0.2
;   extruderUseWipe,0,1
;   extruderWipeDistance,5,2
;   primaryExtruder,1
;   layerHeight,0.2
;   topSolidLayers,3
;   bottomSolidLayers,3
;   perimeterOutlines,2
;   printPerimetersInsideOut,1
;   startPointOption,2
;   startPointOriginX,0
;   startPointOriginY,0
;   startPointOriginZ,300
;   sequentialIslands,0
;   spiralVaseMode,0
;   firstLayerHeightRatio,0.9
;   firstLayerUnderspeed,0.5
;   useRaft,1
;   raftLayers,3
;   raftOffset,3
;   raftInfill,85
;   disableRaftBaseLayers,0
;   useSkirt,1
;   skirtLayers,1
;   skirtOutlines,2
;   skirtOffset,4
;   infillExtruder,1
;   externalInfillPattern,Rectilinear
;   infillPercentage,10
;   outlineOverlapPercentage,20
;   minInfillLength,5
;   infillLayerInterval,1
;   randomInfillStartPoint,1
;   infillAngles,45,-45
;   generateSupport,1
;   supportExtruder,0
;   supportInfill,15
;   supportExtraInflation,0
;   supportLayerInterval,1
;   supportHorizontalPartOffset,0.3
;   supportUpperSeparationLayers,1
;   supportLowerSeparationLayers,1
;   supportGridSpacing,4
;   maxOverhangAngle,45
;   supportAngles,0
;   temperatureName,Right Extruder,Left Extruder,Heated Build Platform
;   temperatureNumber,0,1,0
;   temperatureSetpointCount,1,1,1
;   temperatureSetpointLayers,1,1,1
;   temperatureSetpointTemperatures,230,220,115
;   temperatureStabilizeAtStartup,0,0,0
;   temperatureHeatedBed,0,0,1
;   temperatureRelayBetweenLayers,0,0,0
;   temperatureRelayBetweenLoops,0,0,0
;   fanLayers,1
;   fanSpeeds,0
;   blipFanToFullPower,0
;   adjustSpeedForCooling,1
;   minSpeedLayerTime,15
;   minCoolingSpeedSlowdown,20
;   increaseFanForCooling,0
;   minFanLayerTime,45
;   maxCoolingFanSpeed,100
;   increaseFanForBridging,0
;   bridgingFanSpeed,100
;   use5D,1
;   relativeEdistances,1
;   allowEaxisZeroing,0
;   includeM10123,0
;   stickySupport,1
;   detectArcs,0
;   arcReplaceG2G3,0
;   arcRadialCompensation,1
;   gcodeXoffset,0
;   gcodeYoffset,0
;   gcodeZoffset,0
;   overrideMachineDefinition,1
;   machineTypeOverride,0
;   strokeXoverride,250
;   strokeYoverride,150
;   strokeZoverride,150
;   originOffsetXoverride,125
;   originOffsetYoverride,75
;   originOffsetZoverride,0
;   homeXdirOverride,1
;   homeYdirOverride,1
;   homeZdirOverride,-1
;   flipXoverride,1
;   flipYoverride,-1
;   flipZoverride,1
;   startingGcode,; **** Replicator 2X start.gcode ****,M73 P0 ; enable build progress,G162 X Y F3000 ; home XY maximum,G161 Z F1200 ; home Z minimum,G92 Z-5 ; set Z to -5,G1 Z0 ; move Z to 0,G161 Z F100 ; home Z slowly,M132 X Y Z A B ; recall home offsets,M135 T0 ; load right extruder offsets,G1 X-130 Y-75 Z30 F9000 ; move to wait position off table,G130 X20 Y20 Z20 A20 B20 ; lower stepper Vrefs while heating,M126 S[fan_speed_pwm],M140 S[bed0_temperature] T0,M104 S[extruder0_temperature] T0,M104 S[extruder1_temperature] T1,M134 T0 ; stabilize bed temperature,M133 T0 ; stabilize right extruder temperature,M133 T1 ; stabilize left extruder temperature,G130 X127 Y127 Z40 A127 B127 ; default stepper Vrefs,G92 A0 B0 ; zero extruders,G1 Z0.4 ; position nozzle,G1 E25 F300 ; purge nozzle,G1 X-125 Y-70 Z0.15 F1200 ; slow wipe,G1 X-120 Y-65 Z0.5 F1200 ; lift,G92 A0 B0 ; zero extruders,M73 P1 ;@body (notify GPX body has started),; **** end of start.gcode ****
;   layerChangeGcode,
;   toolChangeGcode,
;   endingGcode,; **** Replicator 2X end.gcode ****,M73 P100 ; end build progress,G0 Z155 F1000 ; send Z axis to bottom of machine,M140 S0 T0 ; cool down HBP,M104 S0 T0 ; cool down right extruder,M104 S0 T1 ; cool down left extruder,M127 ; stop blower fan,G162 X Y F3000 ; home XY maximum,M18 ; disable stepper,M72 P1 ; play Ta-Da song,; **** end of end.gcode ****
;   createX3G,1
;   celebration,0
;   celebrationSong,Random Song
;   postProcessing,
;   defaultSpeed,3000
;   outlineUnderspeed,0.5
;   supportUnderspeed,0.8
;   rapidXYspeed,9000
;   rapidZspeed,1200
;   minBridgingArea,50
;   bridgingExtrusionMultiplier,1
;   bridgingSpeedMultiplier,0.8
;   filamentDiameter,1.75
;   useMinPrintHeight,0
;   minPrintHeight,0
;   useMaxPrintHeight,0
;   maxPrintHeight,0
;   overlapRemoval,0
;   overlapRemovalPercentage,0.3
;   useDiaphragm,0
;   diaphragmLayerInterval,20
;   robustSlicing,1
;   mergeAllIntoSolid,0
;   onlyRetractWhenCrossingOutline,1
;   retractBetweenLayers,1
;   useRetractionMinTravel,0
;   retractionMinTravel,3
;   useRetractionOozeRate,0
;   retractionOozeRate,100
;   onlyWipeOutlines,1
G90 ; use absolute coordinates
M83 ; relative extrusion distances
G21 ; set units to millimeters
; **** Replicator 2X start.gcode ****
M73 P0 ; enable build progress
G162 X Y F3000 ; home XY maximum
G161 Z F1200 ; home Z minimum
G92 Z-5 ; set Z to -5
G1 Z0 ; move Z to 0
G161 Z F100 ; home Z slowly
M132 X Y Z A B ; recall home offsets
M135 T0 ; load right extruder offsets
G1 X-130 Y-75 Z30 F9000 ; move to wait position off table
G130 X20 Y20 Z20 A20 B20 ; lower stepper Vrefs while heating
M127
M140 S115 T0
M104 S230 T0
M104 S220 T1
M134 T0 ; stabilize bed temperature
M133 T0 ; stabilize right extruder temperature
M133 T1 ; stabilize left extruder temperature
G130 X127 Y127 Z40 A127 B127 ; default stepper Vrefs
G92 A0 B0 ; zero extruders
G1 Z0.4 ; position nozzle
G1 E25 F300 ; purge nozzle
G1 X-125 Y-70 Z0.15 F1200 ; slow wipe
G1 X-120 Y-65 Z0.5 F1200 ; lift
G92 A0 B0 ; zero extruders
M73 P1 ;@body (notify GPX body has started)
; **** end of start.gcode ****
G1 E-1 F1200
; layer 1, Z = 0.45
M135 T1
; tool H0.5 W0.4
G0 X13.137 Y-0.007 F9000
G0 Z0.45 F1200
G1 E1 F360
G1 X13.218 Y-1.614 E0.1338 F1500
G1 X13.451 Y-3.159 E0.1299
G1 X13.822 Y-4.647 E0.1275
G1 X14.366 Y-6.172 E0.1346
G1 X15.055 Y-7.622 E0.1335
G1 X15.863 Y-8.965 E0.1303
G1 X16.794 Y-10.22 E0.1299
G1 X17.866 Y-11.403 E0.1328
G1 X19.065 Y-12.485 E0.1343
G1 X20.328 Y-13.416 E0.1304
G1 X21.638 Y-14.201 E0.127
G1 X23.114 Y-14.898 E0.1357
G1 X24.583 Y-15.421 E0.1297
G1 X26.156 Y-15.812 E0.1348
G1 X27.685 Y-16.035 E0.1284
G1 X29.237 Y-16.111 E0.1292
G1 X29.718 Y-16.089 E0.04
G1 X30.864 Y-16.031 E0.0954
G1 X32.409 Y-15.798 E0.1299
G1 X33.896 Y-15.427 E0.1274
G1 X35.421 Y-14.883 E0.1347
G1 X36.872 Y-14.194 E0.1335
G1 X38.213 Y-13.387 E0.1302
G1 X39.464 Y-12.459 E0.1295
G1 X40.648 Y-11.387 E0.1328
G1 X41.728 Y-10.191 E0.134
G1 X42.664 Y-8.922 E0.1311
G1 X43.45 Y-7.611 E0.1271
G1 X44.147 Y-6.136 E0.1356
G1 X44.67 Y-4.666 E0.1298
G1 X45.061 Y-3.092 E0.1348
G1 X45.284 Y-1.564 E0.1284
G1 X45.361 Y0.007 E0.1309
G1 X45.28 Y1.615 E0.1338
G1 X45.047 Y3.16 E0.13
G1 X44.676 Y4.646 E0.1274
G1 X44.132 Y6.172 E0.1347
G1 X43.444 Y7.622 E0.1335
G1 X42.636 Y8.964 E0.1302
G1 X41.708 Y10.216 E0.1296
G1 X40.644 Y11.39 E0.1318
G1 X39.479 Y12.447 E0.1308
G1 X38.18 Y13.409 E0.1344
G1 X36.86 Y14.201 E0.128
G1 X35.385 Y14.898 E0.1357
G1 X33.915 Y15.421 E0.1297
G1 X32.342 Y15.812 E0.1348
G1 X30.813 Y16.035 E0.1284
G1 X29.241 Y16.112 E0.1309
G1 X27.635 Y16.031 E0.1338
G1 X26.089 Y15.798 E0.1299
G1 X24.603 Y15.427 E0.1274
G1 X23.077 Y14.883 E0.1347
G1 X21.626 Y14.194 E0.1335
G1 X20.284 Y13.387 E0.1303
G1 X19.03 Y12.456 E0.1298
G1 X17.859 Y11.395 E0.1314
G1 X16.798 Y10.225 E0.1313
G1 X15.839 Y8.93 E0.134
G1 X15.048 Y7.611 E0.1279
G1 X14.351 Y6.136 E0.1357
G1 X13.828 Y4.667 E0.1297
G1 X13.437 Y3.092 E0.1349
G1 X13.214 Y1.564 E0.1284
G1 X13.137 Y-0.007 E0.1308
G0 X13.538 Y-0.007 F9000
G1 X13.617 Y-1.574 E0.1305 F1500
G1 X13.844 Y-3.081 E0.1267
G1 X14.206 Y-4.531 E0.1243
G1 X14.736 Y-6.019 E0.1313
G1 X15.407 Y-7.433 E0.1302
G1 X16.195 Y-8.742 E0.1271
G1 X17.103 Y-9.966 E0.1267
G1 X18.149 Y-11.12 E0.1295
G1 X19.319 Y-12.175 E0.131
G1 X20.55 Y-13.082 E0.1272
G1 X21.827 Y-13.847 E0.1238
G1 X23.266 Y-14.528 E0.1324
G1 X24.699 Y-15.038 E0.1264
G1 X26.234 Y-15.419 E0.1315
G1 X27.724 Y-15.636 E0.1252
G1 X29.238 Y-15.71 E0.1261
G1 X29.699 Y-15.689 E0.0384
G1 X30.824 Y-15.632 E0.0937
G1 X32.33 Y-15.405 E0.1267
G1 X33.78 Y-15.044 E0.1242
G1 X35.268 Y-14.513 E0.1314
G1 X36.682 Y-13.841 E0.1302
G1 X37.99 Y-13.054 E0.1269
G1 X39.21 Y-12.149 E0.1263
G1 X40.365 Y-11.104 E0.1295
G1 X41.418 Y-9.938 E0.1307
G1 X42.331 Y-8.7 E0.1278
G1 X43.096 Y-7.422 E0.1239
G1 X43.777 Y-5.983 E0.1323
G1 X44.287 Y-4.55 E0.1265
G1 X44.668 Y-3.015 E0.1315
G1 X44.885 Y-1.526 E0.1252
G1 X44.96 Y0.007 E0.1276
G1 X44.881 Y1.575 E0.1305
G1 X44.654 Y3.082 E0.1267
G1 X44.293 Y4.531 E0.1241
G1 X43.762 Y6.019 E0.1314
G1 X43.091 Y7.433 E0.1302
G1 X42.303 Y8.741 E0.127
G1 X41.398 Y9.961 E0.1263
G1 X40.361 Y11.107 E0.1285
G1 X39.225 Y12.138 E0.1275
G1 X37.958 Y13.076 E0.1312
G1 X36.671 Y13.847 E0.1247
G1 X35.232 Y14.528 E0.1324
G1 X33.799 Y15.038 E0.1264
G1 X32.264 Y15.419 E0.1315
G1 X30.775 Y15.636 E0.1252
G1 X29.242 Y15.711 E0.1276
G1 X27.674 Y15.632 E0.1305
G1 X26.168 Y15.405 E0.1267
G1 X24.719 Y15.044 E0.1242
G1 X23.23 Y14.513 E0.1314
G1 X21.816 Y13.841 E0.1302
G1 X20.507 Y13.054 E0.127
G1 X19.285 Y12.147 E0.1266
G1 X18.142 Y11.112 E0.1282
G1 X17.107 Y9.971 E0.128
G1 X16.172 Y8.708 E0.1307
G1 X15.402 Y7.422 E0.1246
G1 X14.721 Y5.983 E0.1324
G1 X14.211 Y4.551 E0.1264
G1 X13.83 Y3.015 E0.1316
G1 X13.613 Y1.525 E0.1252
G1 X13.538 Y-0.007 E0.1275
; tool H0.5 W0.8
G0 X18.143 Y-0.004 F9000
G1 X18.2 Y-1.115 E0.185 F375
G1 X18.36 Y-2.18 E0.1791
G1 X18.614 Y-3.199 E0.1747
G1 X18.991 Y-4.256 E0.1866
G1 X19.466 Y-5.255 E0.184
G1 X20.022 Y-6.18 E0.1794
G1 X20.663 Y-7.043 E0.1788
G1 X21.402 Y-7.859 E0.1831
G1 X22.231 Y-8.607 E0.1856
G1 X23.102 Y-9.249 E0.18
G1 X23.997 Y-9.785 E0.1735
G1 X25.025 Y-10.271 E0.1891
G1 X26.028 Y-10.628 E0.1771
G1 X27.122 Y-10.9 E0.1875
G1 X28.169 Y-11.053 E0.1759
G1 X29.243 Y-11.105 E0.1789
G1 X29.476 Y-11.094 E0.0387
G1 X30.364 Y-11.05 E0.1479
G1 X31.429 Y-10.889 E0.1791
G1 X32.448 Y-10.635 E0.1746
G1 X33.505 Y-10.258 E0.1866
G1 X34.505 Y-9.783 E0.1841
G1 X35.428 Y-9.227 E0.1793
G1 X36.289 Y-8.589 E0.1782
G1 X37.106 Y-7.849 E0.1832
G1 X37.852 Y-7.024 E0.1851
G1 X38.498 Y-6.147 E0.1811
G1 X39.034 Y-5.252 E0.1736
G1 X39.52 Y-4.224 E0.189
G1 X39.877 Y-3.221 E0.1771
G1 X40.149 Y-2.127 E0.1875
G1 X40.302 Y-1.08 E0.1758
G1 X40.355 Y0.004 E0.1805
G1 X40.299 Y1.115 E0.1851
G1 X40.138 Y2.18 E0.1791
G1 X39.884 Y3.198 E0.1745
G1 X39.507 Y4.255 E0.1866
G1 X39.033 Y5.255 E0.1841
G1 X38.477 Y6.179 E0.1793
G1 X37.838 Y7.04 E0.1783
G1 X37.102 Y7.853 E0.1823
G1 X36.303 Y8.577 E0.1794
G1 X35.401 Y9.246 E0.1868
G1 X34.501 Y9.785 E0.1744
G1 X33.473 Y10.271 E0.1891
G1 X32.47 Y10.628 E0.1771
G1 X31.376 Y10.9 E0.1875
G1 X30.329 Y11.053 E0.1759
G1 X29.245 Y11.106 E0.1805
G1 X28.134 Y11.05 E0.185
G1 X27.069 Y10.889 E0.1791
G1 X26.051 Y10.635 E0.1746
G1 X24.993 Y10.258 E0.1866
G1 X23.994 Y9.783 E0.1841
G1 X23.069 Y9.227 E0.1794
G1 X22.206 Y8.587 E0.1788
G1 X21.397 Y7.854 E0.1815
G1 X20.668 Y7.05 E0.1804
G1 X20.003 Y6.151 E0.186
G1 X19.464 Y5.252 E0.1743
G1 X18.978 Y4.224 E0.1891
G1 X18.621 Y3.221 E0.177
G1 X18.349 Y2.127 E0.1876
G1 X18.196 Y1.08 E0.1759
G1 X18.143 Y-0.004 E0.1804
G0 X18.2 Y-1.115 F375
G0 X18.332 Y-1.992 F375
G0 X24.1 Y-8.914 F9000
G1 X34.397 Y-8.914 E1.7124 F375
G1 X34.983 Y-8.562 E0.1137
G1 X35.781 Y-7.97 E0.1653
G1 X36.539 Y-7.283 E0.17
G1 X37.13 Y-6.629 E0.1467
G1 X21.367 Y-6.629 E2.6215
G1 X21.282 Y-6.535 E0.021
G1 X20.687 Y-5.734 E0.1659
G1 X20.171 Y-4.877 E0.1664
G1 X19.918 Y-4.343 E0.0983
G1 X38.579 Y-4.343 E3.1034
G1 X38.78 Y-3.918 E0.0781
G1 X39.11 Y-2.99 E0.1639
G1 X39.342 Y-2.057 E0.1598
G1 X19.154 Y-2.057 E3.3573
G1 X19.145 Y-2.023 E0.0059
G1 X18.997 Y-1.035 E0.1662
G1 X18.944 Y-0.003 E0.1718
G1 X18.956 Y0.229 E0.0385
G1 X39.542 Y0.229 E3.4236
G1 X39.502 Y1.035 E0.1343
G1 X39.353 Y2.023 E0.1662
G1 X39.23 Y2.514 E0.0841
G1 X19.27 Y2.514 E3.3195
G1 X19.388 Y2.99 E0.0815
G1 X19.718 Y3.918 E0.1638
G1 X20.135 Y4.8 E0.1622
G1 X38.363 Y4.8 E3.0313
G1 X38.327 Y4.877 E0.0141
G1 X37.811 Y5.734 E0.1663
G1 X37.219 Y6.532 E0.1653
G1 X36.717 Y7.086 E0.1242
G1 X21.781 Y7.086 E2.484
G1 X21.963 Y7.287 E0.0452
G1 X22.714 Y7.968 E0.1685
G1 X23.515 Y8.562 E0.1658
G1 X24.372 Y9.078 E0.1664
G1 X24.991 Y9.371 E0.1139
G1 X33.504 Y9.371 E1.4157
G1 X33.167 Y9.531 E0.062
G1 X32.239 Y9.861 E0.1639
G1 X31.221 Y10.114 E0.1743
G1 X30.252 Y10.255 E0.163
G1 X29.246 Y10.305 E0.1674
G1 X28.214 Y10.253 E0.1718
G1 X27.226 Y10.104 E0.1662
G1 X26.282 Y9.868 E0.1618
G1 X25.3 Y9.518 E0.1734
G1 X24.991 Y9.371 E0.0569
G1 E-1 F1200
; layer 2, Z = 0.95
G0 X24.993 Y10.258 F9000
G0 Z0.95 F1200
G1 E1 F1200
G1 X23.994 Y9.783 E0.1841 F750
G1 X23.069 Y9.227 E0.1794
G1 X22.206 Y8.587 E0.1788
G1 X21.397 Y7.854 E0.1815
G1 X20.668 Y7.05 E0.1804
G1 X20.003 Y6.151 E0.186
G1 X19.464 Y5.252 E0.1743
G1 X18.978 Y4.224 E0.1891
G1 X18.621 Y3.221 E0.177
G1 X18.349 Y2.127 E0.1876
G1 X18.196 Y1.08 E0.1759
G1 X18.143 Y-0.004 E0.1804
G1 X18.2 Y-1.115 E0.185
G1 X18.36 Y-2.18 E0.1791
G1 X18.614 Y-3.199 E0.1747
G1 X18.991 Y-4.256 E0.1866
G1 X19.466 Y-5.255 E0.184
G1 X20.022 Y-6.18 E0.1794
G1 X20.663 Y-7.043 E0.1788
G1 X21.402 Y-7.859 E0.1831
G1 X22.231 Y-8.607 E0.1856
G1 X23.102 Y-9.249 E0.18
G1 X23.997 Y-9.785 E0.1735
G1 X25.025 Y-10.271 E0.1891
G1 X26.028 Y-10.628 E0.1771
G1 X27.122 Y-10.9 E0.1875
G1 X28.169 Y-11.053 E0.1759
G1 X29.243 Y-11.105 E0.1789
G1 X29.476 Y-11.094 E0.0387
G1 X30.364 Y-11.05 E0.1479
G1 X31.429 Y-10.889 E0.1791
G1 X32.448 Y-10.635 E0.1746
G1 X33.505 Y-10.258 E0.1866
G1 X34.505 Y-9.783 E0.1841
G1 X35.428 Y-9.227 E0.1793
G1 X36.289 Y-8.589 E0.1782
G1 X37.106 Y-7.849 E0.1832
G1 X37.852 Y-7.024 E0.1851
G1 X38.498 Y-6.147 E0.1811
G1 X39.034 Y-5.252 E0.1736
G1 X39.52 Y-4.224 E0.189
G1 X39.877 Y-3.221 E0.1771
G1 X40.149 Y-2.127 E0.1875
G1 X40.302 Y-1.08 E0.1758
G1 X40.355 Y0.004 E0.1805
G1 X40.299 Y1.115 E0.1851
G1 X40.138 Y2.18 E0.1791
G1 X39.884 Y3.198 E0.1745
G1 X39.507 Y4.255 E0.1866
G1 X39.033 Y5.255 E0.1841
G1 X38.477 Y6.179 E0.1793
G1 X37.838 Y7.04 E0.1783
G1 X37.102 Y7.853 E0.1823
G1 X36.303 Y8.577 E0.1794
G1 X35.401 Y9.246 E0.1868
G1 X34.501 Y9.785 E0.1744
G1 X33.473 Y10.271 E0.1891
G1 X32.47 Y10.628 E0.1771
G1 X31.376 Y10.9 E0.1875
G1 X30.329 Y11.053 E0.1759
G1 X29.245 Y11.106 E0.1805
G1 X28.134 Y11.05 E0.185
G1 X27.069 Y10.889 E0.1791
G1 X26.051 Y10.635 E0.1746
G1 X24.993 Y10.258 E0.1866
G0 X23.994 Y9.783 F750
G0 X23.228 Y9.323 F750
G0 X24.991 Y9.371 F9000
G1 X25.3 Y9.518 E0.0569 F750
G1 X26.282 Y9.868 E0.1734
G1 X27.226 Y10.104 E0.1618
G1 X28.214 Y10.253 E0.1662
G1 X29.246 Y10.305 E0.1718
G1 X30.252 Y10.255 E0.1674
G1 X31.221 Y10.114 E0.163
G1 X32.239 Y9.861 E0.1743
G1 X33.167 Y9.531 E0.1639
G1 X33.504 Y9.371 E0.062
G1 X24.991 Y9.371 E1.4157
G1 X24.372 Y9.078 E0.1139
G1 X23.515 Y8.562 E0.1664
G1 X22.714 Y7.968 E0.1658
G1 X21.963 Y7.287 E0.1685
G1 X21.781 Y7.086 E0.0452
G1 X36.717 Y7.086 E2.484
G1 X37.219 Y6.532 E0.1242
G1 X37.811 Y5.734 E0.1653
G1 X38.327 Y4.877 E0.1663
G1 X38.363 Y4.8 E0.0141
G1 X20.135 Y4.8 E3.0313
G1 X19.718 Y3.918 E0.1622
G1 X19.388 Y2.99 E0.1638
G1 X19.27 Y2.514 E0.0815
G1 X39.23 Y2.514 E3.3195
G1 X39.353 Y2.023 E0.0841
G1 X39.502 Y1.035 E0.1662
G1 X39.542 Y0.229 E0.1343
G1 X18.956 Y0.229 E3.4236
G1 X18.944 Y-0.003 E0.0385
G1 X18.997 Y-1.035 E0.1718
G1 X19.145 Y-2.023 E0.1662
G1 X19.154 Y-2.057 E0.0059
G1 X39.342 Y-2.057 E3.3573
G1 X39.11 Y-2.99 E0.1598
G1 X38.78 Y-3.918 E0.1639
G1 X38.579 Y-4.343 E0.0781
G1 X19.918 Y-4.343 E3.1034
G1 X20.171 Y-4.877 E0.0983
G1 X20.687 Y-5.734 E0.1664
G1 X21.282 Y-6.535 E0.1659
G1 X21.367 Y-6.629 E0.021
G1 X37.13 Y-6.629 E2.6215
G1 X36.539 Y-7.283 E0.1467
G1 X35.781 Y-7.97 E0.17
G1 X34.983 Y-8.562 E0.1653
G1 X34.397 Y-8.914 E0.1137
G1 X24.1 Y-8.914 E1.7124
G1 E-1 F1200
; layer 3, Z = 1.32647
; tool H0.376 W0.64
