; G-Code generated by Simplify3D(TM) Version 2.1.1
; jul 30, 2014 at 4:43:19 P.M.
; Settings Summary
;   processName,ABS
;   applyToModels,Man2
;   printMaterial,ABS
;   printQuality,Medium
;   extruderName,Right Extruder,Left Extruder
;   extruderToolheadNumber,0,1
;   extruderDiameter,0.4,0.4
;   extruderAutoWidth,0,0
;   extruderWidth,0.4,0.4
;   extrusionMultiplier,1,1
;   extruderUseRetract,1,1
;   extruderRetractionDistance,1,1
;   extruderExtraRestartDistance,0,0
;   extruderRetractionZLift,0,0
;   extruderRetractionSpeed,1200,1200
;   extruderUseCoasting,0,0
;   extruderCoastingDistance,0.2,0.2
;   extruderUseWipe,0,0
;   extruderWipeDistance,5,5
;   primaryExtruder,0
;   layerHeight,0.2
;   topSolidLayers,3
;   bottomSolidLayers,3
;   perimeterOutlines,2
;   printPerimetersInsideOut,1
;   startPointOption,2
;   startPointOriginX,0
;   startPointOriginY,0
;   startPointOriginZ,300
;   sequentialIslands,0
;   spiralVaseMode,0
;   firstLayerHeightRatio,0.9
;   firstLayerUnderspeed,0.5
;   useRaft,0
;   raftLayers,3
;   raftOffset,3
;   raftSeparationDistance,0.14
;   raftInfill,85
;   disableRaftBaseLayers,0
;   useSkirt,1
;   skirtLayers,1
;   skirtOutlines,2
;   skirtOffset,4
;   infillExtruder,0
;   externalInfillPattern,Rectilinear
;   infillPercentage,30
;   outlineOverlapPercentage,20
;   minInfillLength,5
;   infillLayerInterval,1
;   randomInfillStartPoint,1
;   infillAngles,45,-45
;   generateSupport,1
;   supportExtruder,0
;   supportInfill,15
;   supportExtraInflation,0
;   supportLayerInterval,1
;   supportHorizontalPartOffset,0.3
;   supportUpperSeparationLayers,1
;   supportLowerSeparationLayers,1
;   supportGridSpacing,4
;   maxOverhangAngle,45
;   supportAngles,0
;   temperatureName,Right Extruder,Left Extruder,Heated Build Platform
;   temperatureNumber,0,1,0
;   temperatureSetpointCount,1,1,1
;   temperatureSetpointLayers,1,1,1
;   temperatureSetpointTemperatures,230,0,115
;   temperatureStabilizeAtStartup,0,0,0
;   temperatureHeatedBed,0,0,1
;   temperatureRelayBetweenLayers,0,0,0
;   temperatureRelayBetweenLoops,0,0,0
;   fanLayers,1
;   fanSpeeds,0
;   blipFanToFullPower,0
;   adjustSpeedForCooling,1
;   minSpeedLayerTime,15
;   minCoolingSpeedSlowdown,20
;   increaseFanForCooling,0
;   minFanLayerTime,45
;   maxCoolingFanSpeed,100
;   increaseFanForBridging,0
;   bridgingFanSpeed,100
;   use5D,1
;   relativeEdistances,1
;   allowEaxisZeroing,0
;   includeM10123,0
;   stickySupport,1
;   detectArcs,0
;   arcReplaceG2G3,0
;   arcRadialCompensation,1
;   gcodeXoffset,0
;   gcodeYoffset,0
;   gcodeZoffset,0
;   overrideMachineDefinition,1
;   machineTypeOverride,0
;   strokeXoverride,250
;   strokeYoverride,150
;   strokeZoverride,150
;   originOffsetXoverride,125
;   originOffsetYoverride,75
;   originOffsetZoverride,0
;   homeXdirOverride,1
;   homeYdirOverride,1
;   homeZdirOverride,-1
;   flipXoverride,1
;   flipYoverride,-1
;   flipZoverride,1
;   startingGcode,; **** Replicator 2X start.gcode ****,M73 P0 ; enable build progress,G162 X Y F3000 ; home XY maximum,G161 Z F1200 ; home Z minimum,G92 Z-5 ; set Z to -5,G1 Z0 ; move Z to 0,G161 Z F100 ; home Z slowly,M132 X Y Z A B ; recall home offsets,M135 T0 ; load right extruder offsets,G1 X-130 Y-75 Z30 F9000 ; move to wait position off table,G130 X20 Y20 Z20 A20 B20 ; lower stepper Vrefs while heating,M126 S[fan_speed_pwm],M140 S[bed0_temperature] T0,M134 T0 ; stabilize bed temperature,M104 S[extruder0_temperature] T0,M133 T0 ; stabilize extruder temperature,G130 X127 Y127 Z40 A127 B127 ; default stepper Vrefs,G92 A0 B0 ; zero extruders,G1 Z0.4 ; position nozzle,G1 E25 F300 ; purge nozzle,G1 X-125 Y-70 Z0.15 F1200 ; slow wipe,G1 X-120 Y-65 Z0.5 F1200 ; lift,G92 A0 B0 ; zero extruders,M73 P1 ;@body (notify GPX body has started),; **** end of start.gcode ****
;   layerChangeGcode,
;   toolChangeGcode,
;   endingGcode,; **** Replicator 2X end.gcode ****,M73 P100 ; end build progress,G0 Z155 F1000 ; send Z axis to bottom of machine,M140 S0 T0 ; cool down HBP,M104 S0 T0 ; cool down right extruder,M104 S0 T1 ; cool down left extruder,M127 ; stop blower fan,G162 X Y F3000 ; home XY maximum,M18 ; disable stepper,M72 P1 ; play Ta-Da song,; **** end of end.gcode ****
;   createX3G,1
;   celebration,0
;   celebrationSong,Random Song
;   postProcessing,
;   defaultSpeed,4800
;   outlineUnderspeed,0.5
;   supportUnderspeed,0.8
;   rapidXYspeed,9000
;   rapidZspeed,1200
;   minBridgingArea,50
;   bridgingExtrusionMultiplier,1
;   bridgingSpeedMultiplier,0.8
;   filamentDiameter,1.75
;   filamentPricePerKg,46
;   useMinPrintHeight,0
;   minPrintHeight,0
;   useMaxPrintHeight,0
;   maxPrintHeight,0
;   overlapRemoval,0
;   overlapRemovalPercentage,0.3
;   useDiaphragm,0
;   diaphragmLayerInterval,20
;   robustSlicing,1
;   mergeAllIntoSolid,0
;   onlyRetractWhenCrossingOutline,1
;   retractBetweenLayers,1
;   useRetractionMinTravel,0
;   retractionMinTravel,3
;   useRetractionOozeRate,0
;   retractionOozeRate,100
;   onlyWipeOutlines,1
G90 ; use absolute coordinates
M83 ; relative extrusion distances
G21 ; set units to millimeters
; **** Replicator 2X start.gcode ****
M73 P0 ; enable build progress
G162 X Y F3000 ; home XY maximum
G161 Z F1200 ; home Z minimum
G92 Z-5 ; set Z to -5
G1 Z0 ; move Z to 0
G161 Z F100 ; home Z slowly
M132 X Y Z A B ; recall home offsets
M135 T0 ; load right extruder offsets
G1 X-130 Y-75 Z30 F9000 ; move to wait position off table
G130 X20 Y20 Z20 A20 B20 ; lower stepper Vrefs while heating
M127
M140 S115 T0
M134 T0 ; stabilize bed temperature
M104 S230 T0
M133 T0 ; stabilize extruder temperature
G130 X127 Y127 Z40 A127 B127 ; default stepper Vrefs
G92 A0 B0 ; zero extruders
G1 Z0.4 ; position nozzle
G1 E25 F300 ; purge nozzle
G1 X-125 Y-70 Z0.15 F1200 ; slow wipe
G1 X-120 Y-65 Z0.5 F1200 ; lift
G92 A0 B0 ; zero extruders
M73 P1 ;@body (notify GPX body has started)
; **** end of start.gcode ****
G1 E-1 F1200
; layer 1, Z = 0.18
M135 T0
; tool H0.2 W0.4
G0 X7.589 Y-1.362 F9000
G0 Z0.18 F1200
G1 E1 F360
G1 X7.961 Y-1.362 E0.0123 F2400
G1 X7.961 Y13.948 E0.5092
G1 X8.537 Y13.928 E0.0192
G1 X45.127 Y13.927 E1.217
G1 X45.127 Y35.597 E0.7207
G1 X8.537 Y35.596 E1.217
G1 X7.961 Y35.576 E0.0192
G1 X7.961 Y50.886 E0.5092
G1 X-7.589 Y50.886 E0.5172
G1 X-7.589 Y38.376 E0.4161
G1 X-40.579 Y38.376 E1.0972
G1 X-40.579 Y11.149 E0.9056
G1 X-7.589 Y11.148 E1.0972
G1 X-7.589 Y1.397 E0.3243
G1 X-7.961 Y1.397 E0.0123
G1 X-7.961 Y-13.926 E0.5096
G1 X-8.597 Y-13.926 E0.0212
G1 X-8.797 Y-13.938 E0.0067
G1 X-45.127 Y-13.938 E1.2083
G1 X-45.127 Y-35.585 E0.72
G1 X-8.79 Y-35.586 E1.2085
G1 X-8.591 Y-35.598 E0.0067
G1 X-7.961 Y-35.598 E0.0209
G1 X-7.961 Y-50.92 E0.5096
G1 X7.589 Y-50.92 E0.5172
G1 X7.589 Y-38.367 E0.4175
G1 X40.579 Y-38.367 E1.0972
G1 X40.579 Y-11.157 E0.905
G1 X7.589 Y-11.157 E1.0972
G1 X7.589 Y-1.362 E0.3258
G0 X7.561 Y-0.962 F9000
G1 X7.561 Y14.348 E0.5092 F2400
G1 X7.961 Y14.348 E0.0133
G1 X8.544 Y14.328 E0.0194
G1 X44.727 Y14.327 E1.2034
G1 X44.727 Y35.197 E0.6941
G1 X8.544 Y35.196 E1.2034
G1 X7.96 Y35.176 E0.0194
G1 X7.561 Y35.176 E0.0133
G1 X7.561 Y50.486 E0.5092
G1 X-7.189 Y50.486 E0.4906
G1 X-7.189 Y37.976 E0.4161
G1 X-40.179 Y37.976 E1.0972
G1 X-40.179 Y11.549 E0.879
G1 X-7.189 Y11.548 E1.0972
G1 X-7.189 Y0.997 E0.3509
G1 X-7.561 Y0.997 E0.0123
G1 X-7.561 Y-14.326 E0.5096
G1 X-8.584 Y-14.326 E0.0341
G1 X-8.784 Y-14.338 E0.0067
G1 X-44.727 Y-14.338 E1.1954
G1 X-44.727 Y-35.185 E0.6934
G1 X-8.778 Y-35.186 E1.1956
G1 X-8.578 Y-35.198 E0.0067
G1 X-7.561 Y-35.198 E0.0338
G1 X-7.561 Y-50.52 E0.5096
G1 X7.189 Y-50.52 E0.4906
G1 X7.189 Y-37.967 E0.4175
G1 X40.179 Y-37.967 E1.0972
G1 X40.179 Y-11.557 E0.8784
G1 X7.189 Y-11.557 E1.0972
G1 X7.189 Y-0.962 E0.3524
G1 X7.561 Y-0.962 E0.0123
G1 E-1 F1200
G0 X-3.487 Y16.504 F9000
G1 E1 F1200
G1 X-3.487 Y33.019 E0.5493 F1800
G1 X-5.473 Y33.019 E0.066
G1 X-5.473 Y16.504 E0.5493
G1 X-3.487 Y16.504 E0.066
G0 X-3.087 Y16.104 F9000
G1 X-3.087 Y33.419 E0.5759 F1200
G1 X-5.873 Y33.419 E0.0927
G1 X-5.873 Y16.104 E0.5759
G1 X-3.087 Y16.104 E0.0927
G0 X-5.153 Y17.384 F9000
G1 X-4.593 Y16.824 E0.0263 F2400
G1 X-4.027 Y16.824 E0.0188
G1 X-5.153 Y17.95 E0.0529
G1 X-5.153 Y18.515 E0.0188
G1 X-3.807 Y17.17 E0.0633
G1 X-3.807 Y17.735 E0.0188
G1 X-5.153 Y19.081 E0.0633
G1 X-5.153 Y19.647 E0.0188
G1 X-3.807 Y18.301 E0.0633
G1 X-3.807 Y18.867 E0.0188
G1 X-5.153 Y20.213 E0.0633
G1 X-5.153 Y20.778 E0.0188
G1 X-3.807 Y19.432 E0.0633
G1 X-3.807 Y19.998 E0.0188
G1 X-5.153 Y21.344 E0.0633
G1 X-5.153 Y21.91 E0.0188
G1 X-3.807 Y20.564 E0.0633
G1 X-3.807 Y21.13 E0.0188
G1 X-5.153 Y22.475 E0.0633
G1 X-5.153 Y23.041 E0.0188
G1 X-3.807 Y21.695 E0.0633
G1 X-3.807 Y22.261 E0.0188
G1 X-5.153 Y23.607 E0.0633
G1 X-5.153 Y24.172 E0.0188
G1 X-3.807 Y22.827 E0.0633
G1 X-3.807 Y23.392 E0.0188
G1 X-5.153 Y24.738 E0.0633
G1 X-5.153 Y25.304 E0.0188
G1 X-3.807 Y23.958 E0.0633
G1 X-3.807 Y24.524 E0.0188
G1 X-5.153 Y25.869 E0.0633
G1 X-5.153 Y26.435 E0.0188
G1 X-3.807 Y25.089 E0.0633
G1 X-3.807 Y25.655 E0.0188
G1 X-5.153 Y27.001 E0.0633
G1 X-5.153 Y27.566 E0.0188
G1 X-3.807 Y26.221 E0.0633
G1 X-3.807 Y26.786 E0.0188
G1 X-5.153 Y28.132 E0.0633
G1 X-5.153 Y28.698 E0.0188
G1 X-3.807 Y27.352 E0.0633
G1 X-3.807 Y27.918 E0.0188
G1 X-5.153 Y29.263 E0.0633
G1 X-5.153 Y29.829 E0.0188
G1 X-3.807 Y28.483 E0.0633
G1 X-3.807 Y29.049 E0.0188
G1 X-5.153 Y30.395 E0.0633
G1 X-5.153 Y30.961 E0.0188
G1 X-3.807 Y29.615 E0.0633
G1 X-3.807 Y30.18 E0.0188
G1 X-5.153 Y31.526 E0.0633
G1 X-5.153 Y32.092 E0.0188
G1 X-3.807 Y30.746 E0.0633
G1 X-3.807 Y31.312 E0.0188
G1 X-5.153 Y32.658 E0.0633
G1 X-5.153 Y32.699 E0.0014
G1 X-4.629 Y32.699 E0.0174
G1 X-3.807 Y31.878 E0.0387
G1 X-3.807 Y32.443 E0.0188
G1 X-4.063 Y32.699 E0.012
G1 X-3.807 Y32.699 E0.0085
G1 X-3.807 Y32.443 E0.0085
G1 E-1 F1200
G0 X-4.472 Y-19.283 F9000
G1 E1 F1200
G1 X-6.461 Y-19.283 E0.0662 F1800
G1 X-6.461 Y-30.24 E0.3644
G1 X-4.472 Y-30.24 E0.0662
G1 X-4.472 Y-19.283 E0.3644
G0 X-4.072 Y-18.883 F9000
G1 X-6.861 Y-18.884 E0.0928 F1200
G1 X-6.861 Y-30.64 E0.391
G1 X-4.072 Y-30.64 E0.0928
G1 X-4.072 Y-18.883 E0.391
G0 X-4.792 Y-19.961 F9000
G1 X-4.792 Y-19.603 E0.0119 F2400
G1 X-5.15 Y-19.603 E0.0119
G1 X-4.792 Y-19.961 E0.0168
G1 X-4.792 Y-20.527 E0.0188
G1 X-5.716 Y-19.603 E0.0434
G1 X-6.141 Y-19.603 E0.0141
G1 X-6.141 Y-19.744 E0.0047
G1 X-4.792 Y-21.093 E0.0635
G1 X-4.792 Y-21.659 E0.0188
G1 X-6.141 Y-20.309 E0.0635
G1 X-6.141 Y-20.875 E0.0188
G1 X-4.792 Y-22.224 E0.0635
G1 X-4.792 Y-22.79 E0.0188
G1 X-6.141 Y-21.441 E0.0635
G1 X-6.141 Y-22.006 E0.0188
G1 X-4.792 Y-23.356 E0.0635
G1 X-4.792 Y-23.921 E0.0188
G1 X-6.141 Y-22.572 E0.0635
G1 X-6.141 Y-23.138 E0.0188
G1 X-4.792 Y-24.487 E0.0635
G1 X-4.792 Y-25.053 E0.0188
G1 X-6.141 Y-23.704 E0.0635
G1 X-6.141 Y-24.269 E0.0188
G1 X-4.792 Y-25.618 E0.0635
G1 X-4.792 Y-26.184 E0.0188
G1 X-6.141 Y-24.835 E0.0635
G1 X-6.141 Y-25.401 E0.0188
G1 X-4.792 Y-26.75 E0.0635
G1 X-4.792 Y-27.315 E0.0188
G1 X-6.141 Y-25.966 E0.0635
G1 X-6.141 Y-26.532 E0.0188
G1 X-4.792 Y-27.881 E0.0635
G1 X-4.792 Y-28.447 E0.0188
G1 X-6.141 Y-27.098 E0.0635
G1 X-6.141 Y-27.663 E0.0188
G1 X-4.792 Y-29.012 E0.0635
G1 X-4.792 Y-29.578 E0.0188
G1 X-6.141 Y-28.229 E0.0635
G1 X-6.141 Y-28.795 E0.0188
G1 X-5.015 Y-29.92 E0.0529
G1 X-5.581 Y-29.92 E0.0188
G1 X-6.141 Y-29.36 E0.0263
G1 E-1 F1200
G0 X-8.08 Y-20.364 F9000
G1 E1 F1200
G1 X-8.08 Y-18.08 E0.076 F1920
G1 X-39.92 Y-18.08 E1.059
G1 X-39.92 Y-20.364 E0.076
G1 X-8.08 Y-20.364 E1.059
G1 X-8.08 Y-23.031 E0.0887
G1 X-39.92 Y-23.031 E1.059
G1 X-39.92 Y-25.697 E0.0887
G1 X-8.08 Y-25.697 E1.059
G1 X-8.08 Y-28.364 E0.0887
G1 X-39.92 Y-28.364 E1.059
G1 E-1 F1200
G0 X-3.92 Y-44.364 F9000
G1 E1 F1200
G1 X3.92 Y-44.364 E0.2608 F1920
G1 X3.92 Y-42.08 E0.076
G1 X-0.08 Y-42.08 E0.133
G1 X-0.08 Y-41.697 E0.0127
G1 X-3.92 Y-41.697 E0.1277
G1 X-3.92 Y-39.031 E0.0887
G1 X-0.08 Y-39.031 E0.1277
G1 X-0.08 Y-36.364 E0.0887
G1 X-3.92 Y-36.364 E0.1277
G1 X-3.92 Y-33.697 E0.0887
G1 X3.92 Y-33.697 E0.2608
G1 X3.92 Y-31.031 E0.0887
G1 X-3.182 Y-31.031 E0.2362
G1 X-3.182 Y-28.364 E0.0887
G1 X3.92 Y-28.364 E0.2362
G1 X3.92 Y-25.92 E0.0813
G1 X8.08 Y-25.92 E0.1384
G1 X8.08 Y-28.364 E0.0813
G1 X35.92 Y-28.364 E0.926
G1 X35.92 Y-25.697 E0.0887
G1 X-3.182 Y-25.697 E1.3005
G1 X-3.182 Y-23.031 E0.0887
G1 X35.92 Y-23.031 E1.3005
G1 X35.92 Y-20.364 E0.0887
G1 X8.08 Y-20.364 E0.926
G1 X8.08 Y-17.92 E0.0813
G1 X3.92 Y-17.92 E0.1384
G1 X3.92 Y-20.364 E0.0813
G1 X-3.182 Y-20.364 E0.2362
G1 X-3.182 Y-18.143 E0.0739
G1 X-3.92 Y-18.143 E0.0246
G1 X-3.92 Y-17.697 E0.0148
G1 X35.92 Y-17.697 E1.3251
G1 X35.92 Y-15.031 E0.0887
G1 X-3.92 Y-15.031 E1.3251
G1 X-3.92 Y-12.364 E0.0887
G1 X-0.08 Y-12.364 E0.1277
G1 X-0.08 Y-9.697 E0.0887
G1 X-3.92 Y-9.697 E0.1277
G1 X-3.92 Y-7.031 E0.0887
G1 X-0.08 Y-7.031 E0.1277
G1 X-0.08 Y-6.08 E0.0316
G1 X-3.92 Y-6.08 E0.1277
G1 X-3.92 Y-7.031 E0.0316
G1 E-1 F1200
G0 X0.08 Y6.303 F9000
G1 E1 F1200
G1 X3.92 Y6.303 E0.1277 F1920
G1 X3.92 Y8.969 E0.0887
G1 X0.08 Y8.969 E0.1277
G1 X0.08 Y11.636 E0.0887
G1 X3.92 Y11.636 E0.1277
G1 X3.92 Y14.303 E0.0887
G1 X-2.196 Y14.303 E0.2034
G1 X-2.196 Y16.969 E0.0887
G1 X3.92 Y16.969 E0.2034
G1 X3.92 Y18.08 E0.0369
G1 X39.92 Y18.08 E1.1974
G1 X39.92 Y19.636 E0.0518
G1 X-2.196 Y19.636 E1.4008
G1 X-2.196 Y22.303 E0.0887
G1 X39.92 Y22.303 E1.4008
G1 X39.92 Y24.969 E0.0887
G1 X-2.196 Y24.969 E1.4008
G1 X-2.196 Y27.636 E0.0887
G1 X39.92 Y27.636 E1.4008
G1 X39.92 Y29.92 E0.076
G1 X3.92 Y29.92 E1.1974
G1 X3.92 Y30.303 E0.0127
G1 X-2.196 Y30.303 E0.2034
G1 X-2.196 Y32.969 E0.0887
G1 X3.92 Y32.969 E0.2034
G1 X3.92 Y35.636 E0.0887
G1 X0.08 Y35.636 E0.1277
G1 X0.08 Y38.303 E0.0887
G1 X3.92 Y38.303 E0.1277
G1 X3.92 Y40.969 E0.0887
G1 X0.08 Y40.969 E0.1277
G1 X0.08 Y42.08 E0.0369
G1 X-2.196 Y42.08 E0.0757
G1 X-2.196 Y43.636 E0.0518
G1 X3.92 Y43.636 E0.2034
G1 X3.92 Y45.92 E0.076
G1 X-3.92 Y45.92 E0.2608
G1 X-3.92 Y43.636 E0.076
G1 X-3.482 Y43.636 E0.0146
G1 X-3.482 Y44.146 E0.017
G1 X-3.478 Y44.215 E0.0023
G1 X-3.478 Y44.715 E0.0166
G1 X-2.387 Y44.716 E0.0363
G1 X-2.387 Y44.695 E0.0007
G1 X-2.196 Y44.695 E0.0064
G1 X-2.196 Y43.636 E0.0352
G1 E-1 F1200
G0 X-8.08 Y32.969 F9000
G1 E1 F1200
G1 X-8.08 Y33.92 E0.0316 F1920
G1 X-35.92 Y33.92 E0.926
G1 X-35.92 Y32.969 E0.0316
G1 X-8.08 Y32.969 E0.926
G1 X-8.08 Y30.303 E0.0887
G1 X-35.92 Y30.303 E0.926
G1 X-35.92 Y27.636 E0.0887
G1 X-8.08 Y27.636 E0.926
G1 X-8.08 Y24.969 E0.0887
G1 X-35.92 Y24.969 E0.926
G1 X-35.92 Y22.303 E0.0887
G1 X-8.08 Y22.303 E0.926
G1 X-8.08 Y19.636 E0.0887
G1 X-35.92 Y19.636 E0.926
G1 X-35.92 Y16.969 E0.0887
G1 X-8.08 Y16.969 E0.926
G1 X-8.08 Y14.303 E0.0887
G1 X-35.92 Y14.303 E0.926
G1 E-1 F1200
G0 X-3.92 Y14.303 F9000
G1 E1 F1200
G1 X-3.48 Y14.303 E0.0146 F1920
G1 X-3.48 Y15.371 E0.0355
G1 X-3.92 Y15.371 E0.0146
G1 X-3.92 Y14.303 E0.0355
G1 X-3.92 Y14.08 E0.0074
G1 X-3.48 Y14.08 E0.0146
G1 X-3.48 Y14.303 E0.0074
G1 E-1 F1200
G0 X8.08 Y-28.364 F9000
G1 E1 F1200
G1 X8.08 Y-31.031 E0.0887 F1920
G1 X35.92 Y-31.031 E0.926
G1 X35.92 Y-33.697 E0.0887
G1 X8.08 Y-33.697 E0.926
G1 E-1 F1200
; layer 2, Z = 0.38
G0 X-4.282 Y-30.281 F9000
G0 Z0.38 F1200
G1 E1 F1200
G1 X-4.282 Y-19.243 E0.3671 F3600
G1 X-6.651 Y-19.243 E0.0788
G1 X-6.651 Y-30.281 E0.3671
G1 X-4.282 Y-30.281 E0.0788
G0 X-3.882 Y-30.681 F9000
G1 X-3.882 Y-18.843 E0.3937 F2400
G1 X-7.051 Y-18.843 E0.1054
G1 X-7.051 Y-30.681 E0.3937
G1 X-3.882 Y-30.681 E0.1054
G0 X-4.65 Y-29.961 F9000
G1 X-4.602 Y-29.913 E0.0023 F4800
G1 X-4.602 Y-29.347 E0.0188
G1 X-5.216 Y-29.961 E0.0289
G1 X-5.781 Y-29.961 E0.0188
G1 X-4.602 Y-28.781 E0.0555
G1 X-4.602 Y-28.215 E0.0188
G1 X-6.331 Y-29.945 E0.0813
G1 X-6.331 Y-29.379 E0.0188
G1 X-4.602 Y-27.65 E0.0813
G1 X-4.602 Y-27.084 E0.0188
G1 X-6.331 Y-28.813 E0.0813
G1 X-6.331 Y-28.248 E0.0188
G1 X-4.602 Y-26.518 E0.0813
G1 X-4.602 Y-25.953 E0.0188
G1 X-6.331 Y-27.682 E0.0813
G1 X-6.331 Y-27.116 E0.0188
G1 X-4.602 Y-25.387 E0.0813
G1 X-4.602 Y-24.821 E0.0188
G1 X-6.331 Y-26.551 E0.0813
G1 X-6.331 Y-25.985 E0.0188
G1 X-4.602 Y-24.256 E0.0813
G1 X-4.602 Y-23.69 E0.0188
G1 X-6.331 Y-25.419 E0.0813
G1 X-6.331 Y-24.853 E0.0188
G1 X-4.602 Y-23.124 E0.0813
